data-examples/cc24_ref-new.cie
CTI3   

DESCRIPTOR "Argyll Calibration Target chart information 3"
ORIGINATOR "ColorChecker24 - November2014 and newer"
CREATED "Sat May  7 09:45:15 2016"
KEYWORD "DEVICE_CLASS"
DEVICE_CLASS "INPUT"
KEYWORD "COLOR_REP"
COLOR_REP "RGB_XYZ"
KEYWORD "SPECTRAL_BANDS"
SPECTRAL_BANDS "36"
KEYWORD "SPECTRAL_START_NM"
SPECTRAL_START_NM "380.000000"
KEYWORD "SPECTRAL_END_NM"
SPECTRAL_END_NM "730.000000"

KEYWORD "SPEC_380"
KEYWORD "SPEC_390"
KEYWORD "SPEC_400"
KEYWORD "SPEC_410"
KEYWORD "SPEC_420"
KEYWORD "SPEC_430"
KEYWORD "SPEC_440"
KEYWORD "SPEC_450"
KEYWORD "SPEC_460"
KEYWORD "SPEC_470"
KEYWORD "SPEC_480"
KEYWORD "SPEC_490"
KEYWORD "SPEC_500"
KEYWORD "SPEC_510"
KEYWORD "SPEC_520"
KEYWORD "SPEC_530"
KEYWORD "SPEC_540"
KEYWORD "SPEC_550"
KEYWORD "SPEC_560"
KEYWORD "SPEC_570"
KEYWORD "SPEC_580"
KEYWORD "SPEC_590"
KEYWORD "SPEC_600"
KEYWORD "SPEC_610"
KEYWORD "SPEC_620"
KEYWORD "SPEC_630"
KEYWORD "SPEC_640"
KEYWORD "SPEC_650"
KEYWORD "SPEC_660"
KEYWORD "SPEC_670"
KEYWORD "SPEC_680"
KEYWORD "SPEC_690"
KEYWORD "SPEC_700"
KEYWORD "SPEC_710"
KEYWORD "SPEC_720"
KEYWORD "SPEC_730"
NUMBER_OF_FIELDS 44
BEGIN_DATA_FORMAT
SAMPLE_ID RGB_R RGB_G RGB_B XYZ_X XYZ_Y XYZ_Z SPEC_380 SPEC_390 SPEC_400 SPEC_410 SPEC_420 SPEC_430 SPEC_440 SPEC_450 SPEC_460 SPEC_470 SPEC_480 SPEC_490 SPEC_500 SPEC_510 SPEC_520 SPEC_530 SPEC_540 SPEC_550 SPEC_560 SPEC_570 SPEC_580 SPEC_590 SPEC_600 SPEC_610 SPEC_620 SPEC_630 SPEC_640 SPEC_650 SPEC_660 SPEC_670 SPEC_680 SPEC_690 SPEC_700 SPEC_710 SPEC_720 SPEC_730
END_DATA_FORMAT

NUMBER_OF_SETS 24
BEGIN_DATA
A01 0 0 0 12.061 10.43 5.04074 5.1603 5.5031 5.6752 5.698 5.6249 5.5523 5.5118 5.5439 5.6752 5.9467 6.2376 6.4109 6.5191 6.6986 7.0378 7.337 7.5419 7.8737 8.5504 9.8085 11.4685 13.0291 13.8884 14.2359 14.7569 15.8136 17.2302 18.5749 19.4424 19.3965 18.5088 17.6474 17.7079 18.4999 19.6299 21.1653
A02 0 0 0 41.2362 36.2705 19.7737 9.6388 12.4869 15.3012 16.6474 17.1449 17.6479 18.5112 19.9292 22.1993 25.406 29.1929 32.8814 35.2199 34.7785 30.7454 26.2779 24.9124 25.6974 25.6385 26.9456 32.8656 41.6877 48.6828 52.7833 55.3553 57.5018 59.8404 62.6076 65.8145 69.2717 72.9289 76.8259 80.8416 84.0837 86.3117 88.109
A03 0 0 0 17.5425 18.9836 26.9112 10.2756 15.6447 22.8741 28.0783 30.0674 31.123 32.1297 32.6556 32.4528 31.7051 30.4521 28.5829 26.4488 24.2279 21.8356 20.0644 19.129 18.2095 16.7918 15.5718 14.9206 14.7373 14.3924 13.8129 13.3296 13.1881 13.5491 14.3874 15.3464 15.831 15.6616 15.1063 14.4014 13.9784 14.4805 16.1469
A04 0 0 0 12.0827 14.5899 5.63588 5.0238 5.2331 5.378 5.43 5.4243 5.4422 5.5063 5.6526 5.9988 6.7777 7.7615 8.4695 9.0212 10.2073 13.1554 16.7797 18.3369 17.8596 16.4572 15.0208 13.7857 12.7046 11.6542 10.9138 10.588 10.5583 10.6243 10.6977 10.837 11.0336 11.207 11.3633 11.6148 11.7974 11.8141 11.9767
A05 0 0 0 25.9203 24.5235 34.9234 12.2021 19.3774 30.7819 40.3349 43.5819 43.8687 43.4379 42.6558 41.4238 39.5697 37.1119 34.2194 31.2482 28.0211 24.6693 22.6394 21.9687 21.3043 19.9188 18.8136 18.9615 20.6217 22.9319 24.6715 24.8678 25.1529 27.0117 30.0397 33.0298 34.882 35.4259 35.3836 35.7265 36.352 36.9655 37.7578
A06 0 0 0 32.3861 44.0755 36.5355 11.7181 17.3961 25.0909 30.4505 32.5165 33.7716 35.3919 37.8194 41.7546 47.0577 52.2231 56.5146 58.839 59.0759 57.7009 55.2677 52.1656 48.3055 43.8521 39.3426 34.5678 29.8501 25.7414 23.1084 21.7177 20.9871 20.4729 20.1227 20.22 20.8726 21.8561 22.8611 23.709 23.8456 23.1871 22.8409
B01 0 0 0 42.3812 32.733 5.3635 4.8448 4.9314 4.9883 5.0227 5.0352 5.0704 5.1836 5.423 5.8873 6.6473 7.3409 7.7201 8.1312 9.2069 11.4089 13.794 15.7939 18.9987 25.5659 36.3845 47.2023 53.9565 56.8272 57.8268 58.1036 58.1687 58.285 58.5101 58.8046 59.0399 59.3541 59.7026 60.2906 60.7718 61.0659 61.5507
B02 0 0 0 13.0912 11.8815 31.3475 9.9769 15.8337 23.9345 30.2701 33.8852 36.8993 39.8565 41.3847 40.4279 37.1119 32.1051 26.231 21.0135 16.8354 13.557 11.443 10.2349 9.4048 8.7205 8.3042 8.1281 8.1415 8.2 8.2474 8.3193 8.5975 9.2524 10.3376 11.8816 14.0628 17.1279 21.4465 27.0872 33.6476 40.5481 47.1498
B03 0 0 0 31.8098 20.6106 10.494 9.4832 11.9399 13.7034 13.9384 13.42 12.9625 12.6606 12.442 12.126 11.6889 11.281 10.9587 10.5854 10.0123 9.402 9.1171 9.0684 8.9887 8.8824 9.6158 14.116 25.1506 39.4267 50.8683 57.5221 60.5334 61.7009 62.1452 62.2845 62.115 61.9306 61.7773 61.9008 61.9388 61.7895 61.8482
B04 0 0 0 8.72601 6.66464 10.6941 9.5018 12.8008 16.1364 17.525 17.2044 16.1319 14.7377 13.3164 11.9639 10.56 9.1521 8.059 7.2693 6.3881 5.4908 4.993 4.8615 4.8088 4.648 4.5885 4.7709 5.2442 6.2627 8.3722 10.7319 12.288 13.581 15.1316 17.1203 19.6751 22.7585 26.2714 29.932 33.2485 35.9815 38.2228
B05 0 0 0 37.0559 47.3021 8.85381 7.7229 8.7691 9.4025 9.3547 8.9827 8.657 8.3996 8.2583 8.2088 8.1632 8.5014 10.824 19.6356 36.3974 50.9745 57.8042 59.2285 57.6691 54.7587 51.4183 47.0029 41.8338 36.8491 33.4936 31.672 30.6884 29.9792 29.4982 29.6848 30.6724 32.1005 33.4945 34.5861 34.6053 33.581 33.2415
B06 0 0 0 52.0606 46.771 6.67219 5.767 5.8645 5.9051 5.9178 5.9055 5.9219 6.021 6.3255 7.0124 8.1909 9.3397 9.938 10.5343 12.5979 18.9889 30.369 40.4012 45.6964 49.0724 53.0956 57.2316 60.7649 63.0134 64.2751 64.9239 65.2897 65.6366 66.0231 66.4123 66.6386 66.8775 67.1095 67.5795 67.9132 68.024 68.3254
C01 0 0 0 7.45453 6.15637 22.056 7.0985 10.4039 15.0994 19.5044 22.6817 25.4442 28.2656 30.1451 29.3802 26.4505 21.9939 16.9494 12.7914 9.4734 6.7517 5.2097 4.6129 4.3171 4.0945 4.0184 4.0176 4.0336 4.0311 4.0494 4.1043 4.2118 4.4011 4.6816 4.974 5.0822 4.9419 4.8149 4.9521 5.3455 5.9707 7.0097
C02 0 0 0 15.8751 24.379 8.40837 5.3664 5.6916 5.9012 6.0111 6.0937 6.2361 6.5167 7.0367 7.9841 9.6469 12.4015 16.9119 23.1912 29.7302 33.7732 34.3656 32.7823 29.9938 26.6405 23.2227 19.5726 15.9896 13.0516 11.3154 10.4712 10.0602 9.791 9.6329 9.7569 10.2379 10.9338 11.6518 12.24 12.3286 11.9201 11.7906
C03 0 0 0 22.8264 13.6826 4.27248 4.2851 4.3263 4.2926 4.2821 4.291 4.3099 4.4019 4.601 4.9779 5.4784 5.7587 5.7087 5.5529 5.4288 5.3624 5.3135 5.1936 5.0251 4.9938 5.4865 7.283 12.4478 22.9396 36.3638 46.999 52.6228 55.0114 56.0426 56.5079 56.5728 56.6842 56.8553 57.2145 57.4563 57.5419 57.8173
C04 0 0 0 62.7007 63.8457 7.69108 5.5578 5.6106 5.6831 5.7698 5.8117 5.8707 6.0123 6.2844 6.8323 7.8344 9.4905 12.8081 20.1126 32.2396 45.8383 56.6194 63.2484 66.8474 68.7731 70.364 71.2901 71.9927 72.3423 72.3526 72.3061 72.7186 73.1456 73.3106 73.4815 72.9947 70.6467 69.3542 72.0495 74.8494 75.7872 76.2595
C05 0 0 0 32.8326 21.376 24.0851 11.5813 18.169 28.1223 34.9 36.316 35.1564 32.8658 30.2366 27.4276 24.6401 21.6832 18.7991 16.6651 14.7638 12.26 10.2251 9.7133 10.1298 10.2157 10.9205 14.5043 22.387 33.2732 43.9557 51.7133 56.9345 62.0259 67.5905 72.4361 75.1648 76.2263 76.5767 76.7018 76.8777 78.0706 80.7353
C06 0 0 0 13.5744 19.4754 31.6097 8.9765 13.3873 19.3211 24.0476 26.444 28.6594 31.7449 35.0831 38.7634 42.6025 44.6174 44.5128 42.3624 38.478 33.3065 27.8362 22.7504 18.0522 14.0269 11.1805 9.3592 8.2378 7.4084 6.8726 6.6344 6.5411 6.5299 6.6396 6.8434 6.9732 6.9279 6.7646 6.5589 6.4686 6.6824 7.3116
D01 0 0 0 92.4327 96.0741 75.9996 14.0389 22.6585 40.7699 64.9562 81.2298 85.9898 87.2934 88.167 88.9573 89.4504 89.9597 90.5041 90.8216 90.9245 91.0127 91.0719 91.2876 91.4471 91.3458 91.6935 91.7132 91.9205 92.0384 92.1555 92.1849 92.211 92.4529 92.789 93.0598 92.994 92.9836 92.9629 93.1996 93.3351 93.2467 93.4712
D02 0 0 0 60.5291 63.0347 51.483 12.7625 20.9543 36.0719 51.2855 57.7163 58.9655 59.4278 59.8094 59.9899 59.9237 59.9034 60.0185 60.1001 60.0779 60.0926 60.1204 60.1818 60.2005 60.0715 60.202 60.0507 59.9583 59.823 59.7569 59.6558 59.5339 59.4837 59.4902 59.4779 59.3001 59.1401 58.9604 59.0125 58.9959 58.8322 58.8775
D03 0 0 0 37.6408 39.202 32.1565 11.2321 17.6621 27.0324 33.9404 36.1347 36.6745 37.1074 37.447 37.4992 37.345 37.2193 37.2267 37.2739 37.2686 37.3031 37.3576 37.4064 37.4314 37.4031 37.5641 37.5293 37.4715 37.3168 37.1705 36.9778 36.7661 36.5899 36.4555 36.3051 36.0508 35.8136 35.5656 35.4721 35.329 35.0874 34.9791
D04 0 0 0 19.2231 20.0172 16.4153 9.3449 12.6603 16.0745 17.8955 18.4024 18.6427 18.9569 19.1757 19.1609 19.0182 18.9011 18.8769 18.9101 18.9342 18.9849 19.0447 19.0898 19.1183 19.1315 19.2571 19.2786 19.2491 19.1379 19.0083 18.8421 18.661 18.5003 18.3661 18.2222 18.0319 17.8483 17.6554 17.5535 17.4203 17.2392 17.1266
D05 0 0 0 9.08759 9.49911 7.862 6.4046 7.4707 8.3336 8.7263 8.8286 8.9371 9.0885 9.1941 9.1699 9.0836 9.0212 9.0096 9.0266 9.0447 9.072 9.1019 9.1181 9.1179 9.1005 9.1259 9.1017 9.0621 8.9938 8.9236 8.8421 8.7581 8.6858 8.629 8.5739 8.4936 8.4176 8.3419 8.3059 8.2541 8.1839 8.1437
D06 0 0 0 3.28676 3.4068 2.85225 3.3268 3.3627 3.3616 3.3432 3.3253 3.3088 3.2952 3.2945 3.2964 3.2826 3.2707 3.2659 3.2628 3.2541 3.2467 3.2456 3.2457 3.2448 3.2373 3.2431 3.2365 3.2336 3.2309 3.233 3.2337 3.2349 3.2396 3.2469 3.2557 3.2557 3.2549 3.251 3.2636 3.2705 3.27 3.2778
END_DATA
