data-examples/cc24_ref.cie
CTI3   

DESCRIPTOR "Argyll Calibration Target chart information 3"
ORIGINATOR "ColorChecker24 - Before November2014 edition"
CREATED "Tue Apr 28 18:02:47 2015"
KEYWORD "DEVICE_CLASS"
DEVICE_CLASS "INPUT"
KEYWORD "COLOR_REP"
COLOR_REP "RGB_XYZ"
KEYWORD "SPECTRAL_BANDS"
SPECTRAL_BANDS "71"
KEYWORD "SPECTRAL_START_NM"
SPECTRAL_START_NM "380.000000"
KEYWORD "SPECTRAL_END_NM"
SPECTRAL_END_NM "730.000000"

KEYWORD "SPEC_380"
KEYWORD "SPEC_385"
KEYWORD "SPEC_390"
KEYWORD "SPEC_395"
KEYWORD "SPEC_400"
KEYWORD "SPEC_405"
KEYWORD "SPEC_410"
KEYWORD "SPEC_415"
KEYWORD "SPEC_420"
KEYWORD "SPEC_425"
KEYWORD "SPEC_430"
KEYWORD "SPEC_435"
KEYWORD "SPEC_440"
KEYWORD "SPEC_445"
KEYWORD "SPEC_450"
KEYWORD "SPEC_455"
KEYWORD "SPEC_460"
KEYWORD "SPEC_465"
KEYWORD "SPEC_470"
KEYWORD "SPEC_475"
KEYWORD "SPEC_480"
KEYWORD "SPEC_485"
KEYWORD "SPEC_490"
KEYWORD "SPEC_495"
KEYWORD "SPEC_500"
KEYWORD "SPEC_505"
KEYWORD "SPEC_510"
KEYWORD "SPEC_515"
KEYWORD "SPEC_520"
KEYWORD "SPEC_525"
KEYWORD "SPEC_530"
KEYWORD "SPEC_535"
KEYWORD "SPEC_540"
KEYWORD "SPEC_545"
KEYWORD "SPEC_550"
KEYWORD "SPEC_555"
KEYWORD "SPEC_560"
KEYWORD "SPEC_565"
KEYWORD "SPEC_570"
KEYWORD "SPEC_575"
KEYWORD "SPEC_580"
KEYWORD "SPEC_585"
KEYWORD "SPEC_590"
KEYWORD "SPEC_595"
KEYWORD "SPEC_600"
KEYWORD "SPEC_605"
KEYWORD "SPEC_610"
KEYWORD "SPEC_615"
KEYWORD "SPEC_620"
KEYWORD "SPEC_625"
KEYWORD "SPEC_630"
KEYWORD "SPEC_635"
KEYWORD "SPEC_640"
KEYWORD "SPEC_645"
KEYWORD "SPEC_650"
KEYWORD "SPEC_655"
KEYWORD "SPEC_660"
KEYWORD "SPEC_665"
KEYWORD "SPEC_670"
KEYWORD "SPEC_675"
KEYWORD "SPEC_680"
KEYWORD "SPEC_685"
KEYWORD "SPEC_690"
KEYWORD "SPEC_695"
KEYWORD "SPEC_700"
KEYWORD "SPEC_705"
KEYWORD "SPEC_710"
KEYWORD "SPEC_715"
KEYWORD "SPEC_720"
KEYWORD "SPEC_725"
KEYWORD "SPEC_730"
NUMBER_OF_FIELDS 81
BEGIN_DATA_FORMAT
SAMPLE_ID RGB_R RGB_G RGB_B XYZ_X XYZ_Y XYZ_Z SPEC_380 SPEC_385 SPEC_390 SPEC_395 SPEC_400 SPEC_405 SPEC_410 SPEC_415 SPEC_420 SPEC_425 SPEC_430 SPEC_435 SPEC_440 SPEC_445 SPEC_450 SPEC_455 SPEC_460 SPEC_465 SPEC_470 SPEC_475 SPEC_480 SPEC_485 SPEC_490 SPEC_495 SPEC_500 SPEC_505 SPEC_510 SPEC_515 SPEC_520 SPEC_525 SPEC_530 SPEC_535 SPEC_540 SPEC_545 SPEC_550 SPEC_555 SPEC_560 SPEC_565 SPEC_570 SPEC_575 SPEC_580 SPEC_585 SPEC_590 SPEC_595 SPEC_600 SPEC_605 SPEC_610 SPEC_615 SPEC_620 SPEC_625 SPEC_630 SPEC_635 SPEC_640 SPEC_645 SPEC_650 SPEC_655 SPEC_660 SPEC_665 SPEC_670 SPEC_675 SPEC_680 SPEC_685 SPEC_690 SPEC_695 SPEC_700 SPEC_705 SPEC_710 SPEC_715 SPEC_720 SPEC_725 SPEC_730 LAB_L LAB_A LAB_B 
END_DATA_FORMAT

NUMBER_OF_SETS 24
BEGIN_DATA
A01 0.00000 0.00000 0.00000 11.5939 10.1178 5.06519 5.47500 5.65400 5.83300 5.97450 6.11600 6.17700 6.23800 6.23450 6.23100 6.21900 6.20700 6.19500 6.18300 6.17100 6.15900 6.15650 6.15400 6.15800 6.16200 6.18250 6.20300 6.24950 6.29600 6.40700 6.51800 6.77250 7.02700 7.33350 7.64000 7.79450 7.94900 8.03850 8.12800 8.27850 8.42900 8.74350 9.05800 9.67400 10.2900 11.0975 11.9050 12.6655 13.4260 13.8730 14.3200 14.5040 14.6880 14.8825 15.0770 15.4435 15.8100 16.3145 16.8190 17.3545 17.8900 18.3225 18.7550 18.8595 18.9640 18.7705 18.5770 18.3630 18.1490 18.1550 18.1610 18.4410 18.7210 19.1630 19.6050 20.2770 20.9490 38.0530 13.8015 14.2915 
A02 0.00000 0.00000 0.00000 38.6350 34.9519 18.7704 11.7130 13.0290 14.3450 15.8990 17.4530 18.2730 19.0930 19.3265 19.5600 19.7300 19.9000 20.1615 20.4230 20.8705 21.3180 22.0800 22.8420 23.9845 25.1270 26.5660 28.0050 29.4415 30.8780 31.9115 32.9450 33.1405 33.3360 32.3980 31.4600 30.0440 28.6280 27.9885 27.3490 27.4975 27.6460 27.6830 27.7200 28.3250 28.9300 31.4340 33.9380 37.9800 42.0220 45.4005 48.7790 50.6450 52.5110 53.5425 54.5740 55.3650 56.1560 56.9720 57.7880 58.6425 59.4970 60.3385 61.1800 61.8275 62.4750 63.1425 63.8100 64.7030 65.5960 66.7090 67.8220 68.8900 69.9580 70.8335 71.7090 72.5455 73.3820 65.7112 16.4130 18.7801 
A03 0.00000 0.00000 0.00000 17.2089 19.1405 25.8422 13.0360 15.3715 17.7070 21.4040 25.1010 27.8630 30.6250 31.5085 32.3920 32.6925 32.9930 33.1380 33.2830 33.1900 33.0970 32.7195 32.3420 31.7380 31.1340 30.4785 29.8230 29.1780 28.5330 27.7380 26.9430 25.9900 25.0370 24.0905 23.1440 22.2850 21.4260 20.6840 19.9420 19.1965 18.4510 17.6945 16.9380 16.3335 15.7290 15.3200 14.9110 14.6965 14.4820 14.3340 14.1860 14.1215 14.0570 14.0620 14.0670 14.0880 14.1090 14.1830 14.2570 14.4555 14.6540 14.9190 15.1840 15.2675 15.3510 15.1800 15.0090 14.7020 14.3950 14.0170 13.6390 13.4370 13.2350 13.3655 13.4960 14.0845 14.6730 50.8512 -6.63826 -20.5727 
A04 0.00000 0.00000 0.00000 11.1639 12.9333 5.17067 5.12400 5.27350 5.42300 5.51100 5.59900 5.65150 5.70400 5.74500 5.78600 5.84050 5.89500 5.96250 6.03000 6.08050 6.13100 6.17950 6.22800 6.27650 6.32500 6.40150 6.47800 6.60800 6.73800 7.13450 7.53100 8.82550 10.1200 12.3280 14.5360 16.1810 17.8260 18.1100 18.3940 17.7025 17.0110 15.9745 14.9380 14.1060 13.2740 12.7300 12.1860 11.8515 11.5170 11.2325 10.9480 10.7420 10.5360 10.4850 10.4340 10.5165 10.5990 10.7450 10.8910 11.0400 11.1890 11.2975 11.4060 11.4005 11.3950 11.3175 11.2400 11.2275 11.2150 11.3485 11.4820 11.7295 11.9770 12.2180 12.4590 12.7445 13.0300 42.6625 -9.15699 21.6951 
A05 0.00000 0.00000 0.00000 24.3169 24.0623 32.9239 14.4230 17.1250 19.8270 24.6350 29.4430 33.4935 37.5440 39.1905 40.8370 41.4660 42.0950 42.3565 42.6180 42.6135 42.6090 42.2705 41.9320 41.1375 40.3430 39.1350 37.9270 36.2815 34.6360 32.8740 31.1120 29.6180 28.1240 26.7560 25.3880 24.1385 22.8890 22.1545 21.4200 21.1275 20.8350 20.4985 20.1620 19.8010 19.4400 19.3485 19.2570 19.6375 20.0180 20.7295 21.4410 22.1965 22.9520 23.5050 24.0580 24.7270 25.3960 26.6235 27.8510 29.5865 31.3220 33.0505 34.7790 35.6830 36.5870 36.5830 36.5790 36.2605 35.9420 35.8705 35.7990 36.1460 36.4930 37.1080 37.7230 38.7530 39.7830 56.1501 4.90859 -22.8571 
A06 0.00000 0.00000 0.00000 31.4538 42.1572 33.3279 13.6270 15.7865 17.9460 21.3175 24.6890 27.1855 29.6820 30.8550 32.0280 32.8680 33.7080 34.6290 35.5500 36.8345 38.1190 40.0160 41.9130 44.2545 46.5960 48.8220 51.0480 52.8145 54.5810 55.6500 56.7190 57.0725 57.4260 57.1670 56.9080 55.9880 55.0680 53.7095 52.3510 50.5970 48.8430 46.6820 44.5210 42.2540 39.9870 37.5150 35.0430 32.4910 29.9390 27.5910 25.2430 23.6695 22.0960 21.2635 20.4310 20.0050 19.5790 19.3335 19.0880 18.9555 18.8230 18.9475 19.0720 19.5070 19.9420 20.5505 21.1590 21.7345 22.3100 22.7370 23.1640 23.2480 23.3320 23.1365 22.9410 22.9380 22.9350 70.9792 -30.7145 2.11037 
B01 0.00000 0.00000 0.00000 39.3151 29.7732 4.68208 5.38100 5.37500 5.36900 5.34750 5.32600 5.34800 5.37000 5.38600 5.40200 5.42700 5.45200 5.47350 5.49500 5.50550 5.51600 5.54200 5.56800 5.61600 5.66400 5.75200 5.84000 5.98100 6.12200 6.47200 6.82200 7.88200 8.94200 10.7015 12.4610 13.9055 15.3500 16.3645 17.3790 18.6615 19.9440 22.3855 24.8270 29.1845 33.5420 38.9705 44.3990 49.1230 53.8470 56.2570 58.6670 59.0755 59.4840 59.2715 59.0590 58.8605 58.6620 58.5395 58.4170 58.4015 58.3860 58.6805 58.9750 59.6130 60.2510 61.1450 62.0390 62.9595 63.8800 64.6805 65.4810 65.8680 66.2550 66.2550 66.2550 66.4680 66.6810 61.4581 36.8958 56.6868 
B02 0.00000 0.00000 0.00000 12.4387 12.4887 28.9823 12.2360 14.3420 16.4480 19.6490 22.8500 25.7290 28.6080 30.6690 32.7300 34.4190 36.1080 37.4325 38.7570 39.3600 39.9630 39.5600 39.1570 37.7000 36.2430 33.9275 31.6120 28.8180 26.0240 23.4410 20.8580 18.8445 16.8310 15.2995 13.7680 12.7120 11.6560 11.0405 10.4250 10.0310 9.63700 9.30850 8.98000 8.76550 8.55100 8.46150 8.37200 8.38400 8.39600 8.41400 8.43200 8.42150 8.41100 8.39850 8.38600 8.45150 8.51700 8.74700 8.97700 9.38100 9.78500 10.3485 10.9120 11.6290 12.3460 13.3075 14.2690 15.5995 16.9300 18.6975 20.4650 22.4300 24.3950 26.5570 28.7190 30.9840 33.2490 41.9825 2.71748 -41.1562 
B03 0.00000 0.00000 0.00000 28.7362 19.4830 10.1516 9.60000 10.5330 11.4660 12.2620 13.0580 13.2830 13.5080 13.4265 13.3450 13.2520 13.1590 13.0900 13.0210 12.9160 12.8110 12.6580 12.5050 12.2765 12.0480 11.7800 11.5120 11.2485 10.9850 10.7395 10.4940 10.2380 9.98200 9.74900 9.51600 9.39050 9.26500 9.25600 9.24700 9.28300 9.31900 9.47000 9.62100 10.2165 10.8120 13.1845 15.5570 21.0480 26.5390 33.2050 39.8710 44.9395 50.0080 52.8200 55.6320 56.7885 57.9450 58.3590 58.7730 58.9180 59.0630 59.1570 59.2510 59.3480 59.4450 59.6150 59.7850 60.0020 60.2190 60.4545 60.6900 60.8075 60.9250 60.9105 60.8960 60.9600 61.0240 51.2475 44.1226 16.4629 
B04 0.00000 0.00000 0.00000 8.21901 6.63138 10.5700 9.19900 10.4000 11.6010 13.0810 14.5610 15.7070 16.8530 17.3500 17.8470 17.5740 17.3010 16.5490 15.7970 14.8375 13.8780 12.8955 11.9130 11.0265 10.1400 9.41750 8.69500 8.10650 7.51800 7.06350 6.60900 6.32050 6.03200 5.83900 5.64600 5.47900 5.31200 5.21650 5.12100 5.12250 5.12400 5.15950 5.19500 5.19100 5.18700 5.15350 5.12000 5.18100 5.24200 5.54150 5.84100 6.57950 7.31800 8.43500 9.55200 10.7225 11.8930 13.0160 14.1390 15.3465 16.5540 17.9795 19.4050 21.0555 22.7060 24.6225 26.5390 28.7155 30.8920 33.1735 35.4550 37.5160 39.5770 41.5805 43.5840 45.7155 47.8470 30.9526 17.6680 -19.8769 
B05 0.00000 0.00000 0.00000 36.0602 42.6345 8.23714 6.10300 6.11400 6.12500 6.15850 6.19200 6.24150 6.29100 6.34400 6.39700 6.49500 6.59300 6.75700 6.92100 7.19700 7.47300 8.01100 8.54900 9.52750 10.5060 12.1865 13.8670 16.5380 19.2090 23.1410 27.0730 32.3420 37.6110 42.5945 47.5780 50.3500 53.1220 54.0190 54.9160 54.7435 54.5710 53.6890 52.8070 51.6265 50.4460 48.7490 47.0520 44.9080 42.7640 40.4445 38.1250 36.4025 34.6800 33.7120 32.7440 32.2575 31.7710 31.5090 31.2470 31.1205 30.9940 31.2175 31.4410 32.0910 32.7410 33.6320 34.5230 35.3890 36.2550 36.9385 37.6220 37.8380 38.0540 37.9105 37.7670 37.8540 37.9410 71.3062 -16.0810 57.7407 
B06 0.00000 0.00000 0.00000 48.0853 41.4005 5.73540 6.28200 6.28300 6.28400 6.30900 6.33400 6.34400 6.35400 6.36250 6.37100 6.40650 6.44200 6.48900 6.53600 6.56750 6.59900 6.64650 6.69400 6.76750 6.84100 6.98450 7.12800 7.34950 7.57100 8.14650 8.72200 10.6265 12.5310 16.5570 20.5830 25.5545 30.5260 34.4205 38.3150 40.7045 43.0940 45.0045 46.9150 49.3520 51.7890 54.2910 56.7930 58.7405 60.6880 61.7465 62.8050 63.2540 63.7030 63.8510 63.9990 64.0985 64.1980 64.3715 64.5450 64.6845 64.8240 64.9630 65.1020 65.2045 65.3070 65.5215 65.7360 66.0695 66.4030 66.8340 67.2650 67.6175 67.9700 68.1730 68.3760 68.6025 68.8290 70.4556 23.8543 66.8212 
C01 0.00000 0.00000 0.00000 6.97211 6.69981 21.1847 6.62400 7.24400 7.86400 9.01150 10.1590 12.3565 14.5540 17.2525 19.9510 22.1955 24.4400 26.3450 28.2500 29.5930 30.9360 30.8475 30.7590 29.2700 27.7810 25.4340 23.0870 20.4205 17.7540 15.3625 12.9710 11.1995 9.42800 8.19100 6.95400 6.17650 5.39900 4.99050 4.58200 4.37450 4.16700 4.05550 3.94400 3.88750 3.83100 3.80300 3.77500 3.77500 3.77500 3.78600 3.79700 3.82450 3.85200 3.88850 3.92500 3.95600 3.98700 4.03350 4.08000 4.15600 4.23200 4.32500 4.41800 4.48250 4.54700 4.56550 4.58400 4.61300 4.64200 4.73950 4.83700 5.02700 5.21700 5.47400 5.73100 6.11450 6.49800 31.1135 5.23086 -45.8965 
C02 0.00000 0.00000 0.00000 15.6342 22.5862 7.18932 5.19500 5.25050 5.30600 5.36300 5.42000 5.48250 5.54500 5.61100 5.67700 5.76650 5.85600 5.99650 6.13700 6.35650 6.57600 7.02950 7.48300 8.37600 9.26900 10.8785 12.4880 15.1385 17.7890 21.1840 24.5790 27.6520 30.7250 32.2205 33.7160 33.5350 33.3540 32.5035 31.6530 30.4760 29.2990 27.7425 26.1860 24.5925 22.9990 21.3820 19.7650 18.1345 16.5040 15.0025 13.5010 12.4955 11.4900 10.9435 10.3970 10.0940 9.79100 9.61500 9.43900 9.33700 9.23500 9.25600 9.27700 9.46500 9.65300 9.94650 10.2400 10.5410 10.8420 11.0935 11.3450 11.4390 11.5330 11.4625 11.3920 11.4095 11.4270 54.6435 -31.8475 33.1259 
C03 0.00000 0.00000 0.00000 20.5602 12.3458 3.77185 4.99200 4.93450 4.87700 4.81800 4.75900 4.74150 4.72400 4.72000 4.71600 4.72550 4.73500 4.73850 4.74200 4.71700 4.69200 4.64950 4.60700 4.56250 4.51800 4.48100 4.44400 4.43650 4.42900 4.44850 4.46800 4.51400 4.56000 4.61900 4.67800 4.72100 4.76400 4.81150 4.85900 4.94800 5.03700 5.21100 5.38500 5.68550 5.98600 6.59900 7.21200 8.78400 10.3560 14.0540 17.7520 24.4795 31.2070 38.9450 46.6830 52.3830 58.0830 61.2630 64.4430 65.9635 67.4840 68.2510 69.0180 69.4210 69.8240 70.2080 70.5920 71.0435 71.4950 71.9325 72.3700 72.6900 73.0100 73.1905 73.3710 73.6060 73.8410 41.7605 49.7471 28.0693 
C04 0.00000 0.00000 0.00000 59.9529 57.9681 6.68592 5.79800 5.62000 5.44200 5.32900 5.21600 5.20700 5.19800 5.23050 5.26300 5.33050 5.39800 5.50300 5.60800 5.77500 5.94200 6.30050 6.65900 7.36350 8.06800 9.37800 10.6880 12.9460 15.2040 18.8555 22.5070 28.0300 33.5530 39.8960 46.2390 51.0560 55.8730 58.7230 61.5730 63.2730 64.9730 66.0975 67.2220 68.3045 69.3870 70.1910 70.9950 71.6570 72.3190 72.7315 73.1440 73.5240 73.9040 74.2620 74.6200 74.9000 75.1800 75.4980 75.8160 76.1050 76.3940 76.6315 76.8690 76.9835 77.0980 77.3245 77.5510 77.8955 78.2400 78.6290 79.0180 79.3185 79.6190 79.7745 79.9300 80.1480 80.3660 80.7211 9.85966 80.2072 
C05 0.00000 0.00000 0.00000 29.6804 20.3771 23.4036 14.4550 16.9830 19.5110 23.8850 28.2590 31.4180 34.5770 35.3795 36.1820 35.8070 35.4320 34.3965 33.3610 31.9660 30.5710 29.0970 27.6230 26.1895 24.7560 23.2805 21.8050 20.3965 18.9880 17.8870 16.7860 15.8410 14.8960 13.7965 12.6970 11.7100 10.7230 10.3425 9.96200 10.0755 10.1890 10.2725 10.3560 10.6315 10.9070 12.2935 13.6800 16.8215 19.9630 24.4880 29.0130 34.5095 40.0060 45.7930 51.5800 56.5330 61.4860 65.0705 68.6550 70.9160 73.1770 74.5760 75.9750 76.7040 77.4330 77.8735 78.3140 78.7850 79.2560 79.7965 80.3370 80.7460 81.1550 81.4365 81.7180 82.1295 82.5410 52.2610 43.3731 -13.7274 
C06 0.00000 0.00000 0.00000 13.9199 20.3750 29.2520 10.7730 12.4460 14.1190 16.6830 19.2470 21.4440 23.6410 24.8630 26.0850 27.3175 28.5500 30.1450 31.7400 33.5265 35.3130 37.1685 39.0240 40.8105 42.5970 43.5790 44.5610 44.4920 44.4230 43.3720 42.3210 40.4350 38.5490 36.1105 33.6720 30.9725 28.2730 25.7005 23.1280 20.8170 18.5060 16.5300 14.5540 13.1805 11.8070 10.9300 10.0530 9.50550 8.95800 8.55700 8.15600 7.89800 7.64000 7.52300 7.40600 7.35550 7.30500 7.29950 7.29400 7.33750 7.38100 7.47000 7.55900 7.61700 7.67500 7.66150 7.64800 7.57350 7.49900 7.38800 7.27700 7.23850 7.20000 7.28700 7.37400 7.65450 7.93500 52.2586 -31.9213 -23.8751 
D01 0.00000 0.00000 0.00000 87.9274 91.1836 71.1019 18.9360 22.2000 25.4640 33.8620 42.2600 54.1405 66.0210 73.5595 81.0980 83.6550 86.2120 86.9350 87.6580 88.0375 88.4170 88.7605 89.1040 89.3350 89.5660 89.7490 89.9320 90.1510 90.3700 90.5440 90.7180 90.8130 90.9080 90.9995 91.0910 91.0480 91.0050 91.0635 91.1220 91.2620 91.4020 91.3725 91.3430 91.4725 91.6020 91.5750 91.5480 91.5660 91.5840 91.5085 91.4330 91.4900 91.5470 91.6555 91.7640 91.8135 91.8630 91.9820 92.1010 92.1960 92.2910 92.3385 92.3860 92.2925 92.1990 92.2205 92.2420 92.3595 92.4770 92.6130 92.7490 92.8630 92.9770 93.0090 93.0410 93.1850 93.3290 96.4856 0.0151582 3.60357 
D02 0.00000 0.00000 0.00000 56.6613 58.8447 47.5301 17.0850 20.1455 23.2060 29.8565 36.5070 43.5815 50.6560 53.7025 56.7490 57.5095 58.2700 58.5200 58.7700 58.8895 59.0090 59.0540 59.0990 59.0380 58.9770 58.9090 58.8410 58.8420 58.8430 58.8705 58.8980 58.9230 58.9480 59.0035 59.0590 59.0305 59.0020 58.9960 58.9900 59.0100 59.0300 58.9795 58.9290 59.0115 59.0940 59.0625 59.0310 59.0010 58.9710 58.8420 58.7130 58.6140 58.5150 58.4095 58.3040 58.1500 57.9960 57.8875 57.7790 57.6870 57.5950 57.5175 57.4400 57.3305 57.2210 57.1410 57.0610 56.9915 56.9220 56.8750 56.8280 56.8125 56.7970 56.7225 56.6480 56.6395 56.6310 81.2061 -0.189018 1.17164 
D03 0.00000 0.00000 0.00000 34.6329 35.9484 29.2201 14.4210 16.8335 19.2460 23.2150 27.1840 30.1325 33.0810 34.0615 35.0420 35.3670 35.6920 35.9075 36.1230 36.2245 36.3260 36.3115 36.2970 36.1890 36.0810 35.9775 35.8740 35.8425 35.8110 35.8285 35.8460 35.8825 35.9190 35.9800 36.0410 36.0435 36.0460 36.0510 36.0560 36.0695 36.0830 36.0630 36.0430 36.1140 36.1850 36.1800 36.1750 36.1540 36.1330 36.0325 35.9320 35.8425 35.7530 35.6480 35.5430 35.3920 35.2410 35.1155 34.9900 34.8770 34.7640 34.6555 34.5470 34.4095 34.2720 34.1445 34.0170 33.8885 33.7600 33.6455 33.5310 33.4570 33.3830 33.2815 33.1800 33.1170 33.0540 66.4805 -0.0976376 0.696847 
D04 0.00000 0.00000 0.00000 18.3856 19.1213 15.5989 10.5190 11.8260 13.1330 14.6965 16.2600 17.1385 18.0170 18.3045 18.5920 18.7725 18.9530 19.1195 19.2860 19.3545 19.4230 19.4005 19.3780 19.3055 19.2330 19.1695 19.1060 19.0955 19.0850 19.1050 19.1250 19.1415 19.1580 19.1815 19.2050 19.2075 19.2100 19.2135 19.2170 19.2240 19.2310 19.2185 19.2060 19.2345 19.2630 19.2505 19.2380 19.2155 19.1930 19.1260 19.0590 18.9990 18.9390 18.8690 18.7990 18.6930 18.5870 18.4925 18.3980 18.3150 18.2320 18.1585 18.0850 18.0050 17.9250 17.8510 17.7770 17.6905 17.6040 17.5190 17.4340 17.3855 17.3370 17.2780 17.2190 17.1790 17.1390 50.8288 -0.266560 0.425733 
D05 0.00000 0.00000 0.00000 8.58710 8.93682 7.38946 6.79600 7.23400 7.67200 8.03000 8.38800 8.56450 8.74100 8.81450 8.88800 8.96600 9.04400 9.11550 9.18700 9.19550 9.20400 9.16950 9.13500 9.08700 9.03900 9.00700 8.97500 8.97000 8.96500 8.97300 8.98100 8.98450 8.98800 8.99250 8.99700 8.99650 8.99600 8.99850 9.00100 9.00350 9.00600 8.99600 8.98600 8.98800 8.99000 8.97050 8.95100 8.93350 8.91600 8.88400 8.85200 8.82900 8.80600 8.77750 8.74900 8.69700 8.64500 8.59800 8.55100 8.51450 8.47800 8.44900 8.42000 8.39400 8.36800 8.34450 8.32100 8.28750 8.25400 8.21500 8.17600 8.15950 8.14300 8.11800 8.09300 8.08050 8.06800 35.8624 -0.257809 -0.0706142 
D06 0.00000 0.00000 0.00000 3.09365 3.19890 2.65139 3.10200 3.15050 3.19900 3.21350 3.22800 3.24200 3.25600 3.26550 3.27500 3.27850 3.28200 3.28200 3.28200 3.27200 3.26200 3.25500 3.24800 3.24400 3.24000 3.23650 3.23300 3.23200 3.23100 3.22950 3.22800 3.22150 3.21500 3.21200 3.20900 3.20350 3.19800 3.19700 3.19600 3.19700 3.19800 3.19500 3.19200 3.19350 3.19500 3.18850 3.18200 3.18050 3.17900 3.17600 3.17300 3.17900 3.18500 3.18900 3.19300 3.19150 3.19000 3.19050 3.19100 3.19250 3.19400 3.19800 3.20200 3.20700 3.21200 3.21700 3.22200 3.22250 3.22300 3.22350 3.22400 3.22850 3.23300 3.23500 3.23700 3.24350 3.25000 20.8235 0.158865 -0.101047 
END_DATA
