data-examples/ccsg_ref.cie
CTI3   

DESCRIPTOR "Argyll Calibration Target chart information 3"
ORIGINATOR "X-Rite ColorChecker SG, targets older than November 2014"
CREATED "Fri Oct 30 19:35:30 2015"
KEYWORD "DEVICE_CLASS"
DEVICE_CLASS "INPUT"
KEYWORD "COLOR_REP"
COLOR_REP "RGB_XYZ"
KEYWORD "SPECTRAL_BANDS"
SPECTRAL_BANDS "36"
KEYWORD "SPECTRAL_START_NM"
SPECTRAL_START_NM "380.000000"
KEYWORD "SPECTRAL_END_NM"
SPECTRAL_END_NM "730.000000"

KEYWORD "SAMPLE_CLASS"
KEYWORD "SAMPLE_TYPE"
KEYWORD "SPEC_380"
KEYWORD "SPEC_390"
KEYWORD "SPEC_400"
KEYWORD "SPEC_410"
KEYWORD "SPEC_420"
KEYWORD "SPEC_430"
KEYWORD "SPEC_440"
KEYWORD "SPEC_450"
KEYWORD "SPEC_460"
KEYWORD "SPEC_470"
KEYWORD "SPEC_480"
KEYWORD "SPEC_490"
KEYWORD "SPEC_500"
KEYWORD "SPEC_510"
KEYWORD "SPEC_520"
KEYWORD "SPEC_530"
KEYWORD "SPEC_540"
KEYWORD "SPEC_550"
KEYWORD "SPEC_560"
KEYWORD "SPEC_570"
KEYWORD "SPEC_580"
KEYWORD "SPEC_590"
KEYWORD "SPEC_600"
KEYWORD "SPEC_610"
KEYWORD "SPEC_620"
KEYWORD "SPEC_630"
KEYWORD "SPEC_640"
KEYWORD "SPEC_650"
KEYWORD "SPEC_660"
KEYWORD "SPEC_670"
KEYWORD "SPEC_680"
KEYWORD "SPEC_690"
KEYWORD "SPEC_700"
KEYWORD "SPEC_710"
KEYWORD "SPEC_720"
KEYWORD "SPEC_730"
NUMBER_OF_FIELDS 48
BEGIN_DATA_FORMAT
SAMPLE_ID RGB_R RGB_G RGB_B XYZ_X XYZ_Y XYZ_Z SPEC_380 SPEC_390 SPEC_400 SPEC_410 SPEC_420 SPEC_430 SPEC_440 SPEC_450 SPEC_460 SPEC_470 SPEC_480 SPEC_490 SPEC_500 SPEC_510 SPEC_520 SPEC_530 SPEC_540 SPEC_550 SPEC_560 SPEC_570 SPEC_580 SPEC_590 SPEC_600 SPEC_610 SPEC_620 SPEC_630 SPEC_640 SPEC_650 SPEC_660 SPEC_670 SPEC_680 SPEC_690 SPEC_700 SPEC_710 SPEC_720 SPEC_730 LAB_L LAB_A LAB_B 
END_DATA_FORMAT

NUMBER_OF_SETS 140
BEGIN_DATA
A01 242.810 244.080 241.520 87.5932 91.3518 74.7258 12.9100 20.9000 40.1600 66.9200 84.8800 90.0200 91.0000 91.4200 91.7800 91.8400 91.8400 91.9200 91.8600 91.8100 91.7700 91.5000 91.7100 91.8800 91.4900 91.4700 91.1300 91.0100 90.7400 90.5200 90.4400 90.3500 90.5000 90.7000 90.9900 90.6600 90.4500 90.4300 90.4700 90.5100 90.4600 90.7400 96.5547 -0.897850 0.542571 
A02 25.9500 26.5200 26.9900 0.685176 0.712142 0.609154 0.650000 0.730000 0.740000 0.740000 0.750000 0.750000 0.750000 0.740000 0.740000 0.730000 0.730000 0.720000 0.720000 0.720000 0.720000 0.720000 0.710000 0.710000 0.710000 0.710000 0.720000 0.710000 0.710000 0.710000 0.700000 0.690000 0.690000 0.680000 0.680000 0.680000 0.670000 0.670000 0.660000 0.660000 0.660000 0.650000 6.43275 -0.0593973 -0.409849 
A03 110.210 110.290 109.970 17.4865 18.1701 14.9778 7.09000 10.8300 15.1900 17.2500 17.6500 17.9100 18.2900 18.5000 18.4000 18.1500 17.9300 17.8400 17.8400 17.9300 18.0600 18.1200 18.1600 18.1800 18.2000 18.4200 18.5300 18.5600 18.4200 18.2100 17.9600 17.6800 17.4300 17.1900 17.0000 16.7400 16.4900 16.2600 16.0600 15.8700 15.6500 15.4600 49.7018 -0.178601 0.0269963 
A04 242.530 244.270 241.880 87.4811 91.2270 74.5930 12.6300 20.6800 39.9500 66.6900 84.6600 89.8300 90.8300 91.2700 91.6300 91.6900 91.6900 91.7700 91.7200 91.6600 91.6200 91.3600 91.5700 91.7500 91.3700 91.3500 91.0200 90.8900 90.6300 90.4200 90.3400 90.2600 90.4100 90.6200 90.9200 90.5800 90.3800 90.3600 90.4100 90.4500 90.4000 90.6900 96.5034 -0.883709 0.568866 
A05 24.7300 25.5100 26.4000 0.692535 0.719746 0.617500 0.630000 0.740000 0.740000 0.760000 0.760000 0.770000 0.760000 0.750000 0.750000 0.740000 0.730000 0.730000 0.730000 0.730000 0.730000 0.720000 0.720000 0.720000 0.720000 0.720000 0.720000 0.720000 0.720000 0.710000 0.710000 0.700000 0.690000 0.690000 0.690000 0.690000 0.680000 0.680000 0.670000 0.670000 0.670000 0.660000 6.50144 -0.0583226 -0.448997 
A06 110.610 110.760 110.510 17.4515 18.1363 14.9580 7.05000 10.8000 15.1600 17.2300 17.6200 17.8800 18.2700 18.4800 18.3800 18.1200 17.9100 17.8100 17.8100 17.9000 18.0300 18.0900 18.1300 18.1500 18.1700 18.3800 18.5000 18.5200 18.3800 18.1700 17.9200 17.6300 17.3800 17.1500 16.9600 16.7000 16.4500 16.2200 16.0200 15.8300 15.6000 15.4300 49.6610 -0.191957 6.62489e-03 
A07 243.040 244.490 241.860 87.5126 91.2697 74.6420 12.9500 20.9200 40.0900 66.7700 84.7200 89.8800 90.8900 91.3300 91.6900 91.7500 91.7500 91.8300 91.7700 91.7200 91.6800 91.4200 91.6300 91.8000 91.4100 91.3900 91.0500 90.9300 90.6600 90.4400 90.3600 90.2700 90.4100 90.6200 90.9200 90.5800 90.3700 90.3600 90.4200 90.4600 90.4200 90.7100 96.5210 -0.901221 0.556736 
A08 26.0100 26.5700 27.2100 0.692094 0.718346 0.607555 0.630000 0.700000 0.730000 0.730000 0.730000 0.750000 0.750000 0.740000 0.740000 0.730000 0.720000 0.720000 0.720000 0.720000 0.720000 0.720000 0.720000 0.720000 0.720000 0.720000 0.720000 0.720000 0.720000 0.710000 0.710000 0.710000 0.700000 0.700000 0.690000 0.690000 0.690000 0.680000 0.680000 0.670000 0.670000 0.670000 6.48879 -0.0216189 -0.283031 
A09 110.540 110.610 110.330 17.4946 18.1815 14.9844 7.03000 10.8200 15.1800 17.2500 17.6400 17.9100 18.3000 18.5100 18.4100 18.1600 17.9400 17.8500 17.8500 17.9400 18.0700 18.1300 18.1800 18.1900 18.2200 18.4300 18.5500 18.5700 18.4300 18.2100 17.9600 17.6800 17.4300 17.2000 17.0000 16.7500 16.5000 16.2700 16.0700 15.8700 15.6600 15.4700 49.7155 -0.194122 0.0341085 
A10 243.160 244.240 241.410 87.3006 91.0461 74.3533 12.5600 20.5400 39.7500 66.4500 84.3500 89.4900 90.5000 90.9500 91.3400 91.4200 91.4400 91.5500 91.5000 91.4600 91.4300 91.1700 91.3900 91.5800 91.1900 91.1800 90.8400 90.7300 90.4700 90.2500 90.1800 90.0900 90.2400 90.4600 90.7500 90.4200 90.2200 90.2100 90.2800 90.3300 90.3000 90.6000 96.4290 -0.896100 0.647935 
B01 110.290 110.490 110.260 17.5033 18.1887 15.0001 7.06000 10.8200 15.2200 17.2800 17.6700 17.9400 18.3200 18.5300 18.4300 18.1700 17.9600 17.8600 17.8600 17.9500 18.0800 18.1400 18.1900 18.2000 18.2200 18.4300 18.5500 18.5700 18.4400 18.2200 17.9800 17.6900 17.4400 17.2100 17.0100 16.7500 16.5100 16.2800 16.0700 15.8800 15.6600 15.4800 49.7242 -0.184828 9.51114e-03 
B02 134.540 19.4200 86.4100 13.7234 7.35266 8.74715 5.79000 8.82000 13.8000 16.2200 16.5600 15.6700 13.7900 11.6900 9.80000 8.24000 6.74000 5.39000 4.51000 3.89000 3.11000 2.42000 2.20000 2.30000 2.28000 2.34000 3.13000 5.72000 11.2200 18.6700 25.8400 31.4500 35.7800 39.5200 43.3400 47.2600 51.6100 56.5400 61.9500 67.0200 70.9700 74.0900 32.5966 51.5888 -10.8768 
B03 167.600 121.040 172.350 35.1059 28.9620 35.5253 8.25000 15.1800 29.9600 43.8200 48.1300 48.3300 47.3600 45.7200 43.7400 41.4700 38.6100 35.2300 32.2800 29.7300 26.1000 22.1800 20.7000 21.4100 21.2600 21.3200 25.0500 32.6500 40.1400 43.9100 44.3500 44.3500 46.2500 49.4100 52.6900 54.8900 56.2900 57.1500 57.7400 58.1300 58.2200 58.3500 60.7481 26.2216 -18.7100 
B04 94.1800 23.3400 122.050 10.7866 5.71704 16.1291 4.56000 6.50000 9.73000 17.0200 27.6300 29.8700 27.4300 23.1800 18.7300 14.7300 11.1900 8.10000 5.87000 4.53000 3.41000 2.46000 2.12000 2.24000 2.36000 2.39000 2.75000 3.70000 5.92000 10.3000 15.5900 19.9100 23.3600 26.7000 30.4800 34.6400 39.4800 44.9900 50.8200 56.4200 61.2300 65.5100 28.6871 48.3050 -39.0357 
B05 -45.8000 121.320 193.020 14.5800 17.9070 43.1863 6.14000 11.5100 22.4200 33.5100 38.7400 43.4700 50.2600 57.0500 59.3600 58.8200 55.6900 50.5000 44.2400 37.7400 31.2800 25.3200 20.3500 16.0300 12.3000 9.75000 8.32000 7.55000 6.93000 6.42000 6.24000 6.36000 6.65000 7.09000 7.59000 7.78000 7.45000 6.98000 6.59000 6.42000 6.72000 7.67000 49.3831 -15.4444 -48.4630 
B06 -29.3200 155.890 184.500 20.7263 28.8245 40.9451 7.58000 13.6000 25.0300 35.3200 39.2600 42.0600 45.4800 48.9800 52.1200 55.0900 56.6800 56.7500 55.1500 52.0800 47.6900 42.2100 36.4800 30.6300 24.9100 20.4700 17.3700 15.3000 13.5600 12.1800 11.4300 11.0700 10.9200 11.0600 11.4800 11.7900 11.6400 11.2300 10.6100 10.0200 10.0200 10.9000 60.6265 -30.7693 -26.2399 
B07 -5.18000 51.2300 50.2500 1.53267 2.81467 3.10054 1.39000 1.64000 1.82000 1.90000 1.98000 2.09000 2.25000 2.55000 3.09000 4.28000 6.56000 8.76000 9.40000 8.09000 5.87000 4.02000 2.88000 2.14000 1.65000 1.37000 1.24000 1.15000 1.08000 1.02000 0.990000 0.980000 0.970000 0.960000 0.950000 0.950000 0.940000 0.950000 0.970000 1.00000 1.03000 1.08000 19.2858 -26.3761 -6.15725 
B08 -25.5300 157.980 157.890 18.1285 28.2844 30.7190 6.56000 11.0000 17.7800 22.5600 24.7700 26.8100 29.3000 32.6900 37.7300 44.2600 49.8800 53.4600 53.9100 51.8100 48.0600 42.9700 37.3100 31.3300 25.5100 20.9000 17.4300 14.6000 12.0500 10.2600 9.39000 9.05000 8.92000 8.90000 9.17000 9.68000 10.1800 10.5400 10.7100 10.6600 10.5600 10.9400 60.1448 -41.7694 -12.6064 
B09 55.2000 45.5400 35.6000 3.33896 3.35749 1.78544 1.90000 2.05000 2.15000 2.14000 2.12000 2.11000 2.09000 2.09000 2.12000 2.16000 2.22000 2.28000 2.37000 2.55000 2.83000 3.11000 3.29000 3.37000 3.45000 3.62000 3.78000 3.86000 3.87000 3.83000 3.77000 3.69000 3.63000 3.57000 3.52000 3.48000 3.42000 3.38000 3.34000 3.30000 3.26000 3.23000 21.4222 1.67125 8.78396 
B10 110.590 110.690 110.390 17.4720 18.1578 14.9782 7.04000 10.8100 15.1900 17.2500 17.6400 17.9100 18.2900 18.5100 18.4000 18.1500 17.9300 17.8300 17.8400 17.9200 18.0500 18.1100 18.1600 18.1700 18.1900 18.4000 18.5200 18.5400 18.4000 18.1900 17.9400 17.6600 17.4000 17.1700 16.9700 16.7100 16.4700 16.2400 16.0400 15.8500 15.6300 15.4400 49.6870 -0.192791 4.64088e-04 
C01 26.1200 26.8600 27.5800 0.693648 0.720128 0.629902 0.710000 0.770000 0.780000 0.780000 0.790000 0.790000 0.780000 0.770000 0.760000 0.750000 0.740000 0.740000 0.740000 0.730000 0.730000 0.720000 0.720000 0.720000 0.720000 0.720000 0.720000 0.720000 0.720000 0.710000 0.700000 0.700000 0.690000 0.690000 0.680000 0.680000 0.670000 0.670000 0.670000 0.670000 0.660000 0.660000 6.50489 -0.0282633 -0.677187 
C02 54.8500 40.1800 72.0000 4.52423 3.46484 6.01767 4.82000 6.36000 8.30000 8.98000 9.02000 8.85000 8.42000 7.88000 7.32000 6.77000 6.00000 5.07000 4.36000 3.79000 3.13000 2.55000 2.34000 2.36000 2.31000 2.31000 2.69000 3.55000 4.52000 5.11000 5.45000 5.72000 6.07000 6.55000 7.27000 8.29000 9.78000 11.9100 14.8500 18.6900 23.1900 28.1600 21.8169 17.3377 -18.3663 
C03 66.6700 81.6600 150.120 14.5925 12.1988 26.2011 6.70000 12.4400 22.7400 30.7700 33.8400 35.3300 35.9700 35.3700 33.6500 31.0400 27.5300 22.8800 18.5700 15.4200 12.5800 10.4100 9.63000 9.50000 9.06000 8.77000 9.53000 11.3200 13.1700 13.4800 12.3700 11.9900 13.8300 17.8300 23.4500 28.8500 32.5500 34.5500 36.1000 37.9000 40.1000 43.1200 41.5303 18.4797 -37.2690 
C04 -10.0800 48.1800 93.3100 2.86901 2.98571 9.80223 2.63000 4.14000 6.28000 8.02000 8.90000 9.84000 11.3100 13.1400 13.9400 13.7500 12.5500 10.5300 8.55000 6.75000 4.93000 3.50000 2.68000 2.16000 1.72000 1.45000 1.34000 1.30000 1.26000 1.23000 1.24000 1.30000 1.37000 1.45000 1.50000 1.47000 1.36000 1.28000 1.28000 1.34000 1.46000 1.63000 19.9866 -0.176434 -36.2808 
C05 -16.2800 149.360 193.310 22.9410 28.3021 44.4413 7.66000 14.0900 27.6700 40.9300 46.1500 48.5700 51.2800 54.3600 56.6800 58.6100 59.2900 57.4000 54.0700 49.8200 44.1200 37.7700 32.5200 27.8800 23.0300 19.4900 17.8300 17.1300 16.2900 15.4000 15.2200 15.9200 17.1000 18.2300 19.0500 19.0300 18.0500 16.9700 16.6000 16.9000 17.6800 19.0400 60.1607 -18.4523 -31.4275 
C06 -8.68000 51.2100 70.8700 1.98379 2.97539 5.88201 1.86000 2.35000 2.92000 3.30000 3.59000 4.03000 4.71000 5.82000 7.47000 9.77000 11.6000 11.9200 10.4300 8.01000 5.64000 3.85000 2.71000 1.99000 1.55000 1.31000 1.19000 1.12000 1.08000 1.05000 1.05000 1.07000 1.09000 1.12000 1.14000 1.14000 1.11000 1.09000 1.11000 1.14000 1.21000 1.32000 19.9451 -17.9276 -20.9608 
C07 42.7000 144.150 197.150 26.3497 28.8847 46.3413 7.98000 14.8000 30.0300 45.9700 52.6500 55.2900 57.4800 59.1900 59.2800 58.1400 55.7300 52.2000 48.6700 45.0600 39.9100 34.1300 30.3800 27.8700 24.3300 21.4600 20.7100 20.9600 20.6500 20.0100 20.1600 21.4100 23.3500 25.3100 26.8100 26.8200 25.2300 23.4700 22.7500 23.0700 24.1800 26.1700 60.6797 -6.04738 -32.8196 
C08 -31.2600 134.310 127.570 10.4177 19.1003 20.0486 4.38000 6.92000 10.1700 12.2700 13.4800 14.8800 16.7300 19.3700 23.5500 29.7600 36.3900 41.9800 44.0500 42.1900 37.6400 31.7500 25.8400 20.2400 15.3000 11.7000 9.17000 7.30000 5.81000 4.84000 4.37000 4.16000 4.05000 4.03000 4.18000 4.44000 4.69000 4.85000 4.87000 4.79000 4.79000 5.16000 50.8043 -49.8063 -9.63245 
C09 69.2300 156.610 100.470 18.9379 28.8549 14.2607 4.61000 6.59000 8.70000 9.72000 10.2000 10.7600 11.6100 12.9800 15.2500 19.1500 25.1200 31.7600 37.0300 39.6800 40.1400 39.2900 37.8100 35.5900 32.5400 29.2400 25.6500 21.7600 17.5200 13.8100 11.4100 10.0500 9.14000 8.37000 7.86000 7.73000 7.95000 8.47000 9.19000 9.77000 9.82000 9.66000 60.6534 -39.7606 20.7461 
C10 24.0800 24.7700 25.3800 0.696881 0.723433 0.619661 0.670000 0.740000 0.750000 0.750000 0.760000 0.770000 0.760000 0.760000 0.750000 0.740000 0.740000 0.730000 0.730000 0.730000 0.730000 0.730000 0.720000 0.720000 0.720000 0.730000 0.730000 0.720000 0.720000 0.720000 0.710000 0.710000 0.700000 0.700000 0.690000 0.690000 0.690000 0.680000 0.680000 0.670000 0.670000 0.670000 6.53474 -0.0263846 -0.432365 
D01 242.940 244.350 241.790 87.6134 91.3747 74.7212 12.8100 20.8100 40.0800 66.8900 84.8500 89.9900 90.9800 91.4200 91.7800 91.8400 91.8500 91.9300 91.8800 91.8200 91.7800 91.5200 91.7300 91.9100 91.5200 91.5000 91.1600 91.0300 90.7700 90.5500 90.4600 90.3700 90.5200 90.7200 91.0200 90.6900 90.4800 90.4700 90.5100 90.5600 90.5200 90.8100 96.5641 -0.901248 0.562741 
D02 188.110 207.390 222.040 61.2941 64.4372 61.1353 9.53000 16.8300 35.0400 57.9400 69.1700 72.1600 74.0700 75.4400 75.9500 75.8300 75.3900 74.7500 74.0200 73.0700 70.7700 67.1000 64.8600 63.9400 61.4900 59.4000 59.6400 60.9800 61.2000 60.7200 60.9900 62.3300 64.3800 66.3300 67.8400 67.7400 66.2900 64.7100 64.1100 64.5500 65.6700 67.6500 84.1929 -1.94638 -8.24597 
D03 240.380 196.390 207.300 69.7373 65.5172 53.8442 9.89000 17.6600 35.9700 57.1600 65.8300 66.8800 66.7300 66.3700 65.9500 65.2400 64.3200 63.2800 62.2200 61.2100 59.5500 57.1300 56.3800 57.9300 59.4100 61.5700 66.7100 73.9500 79.1700 81.5500 82.5400 82.9000 83.1900 83.3700 83.5900 83.3300 83.2300 83.2700 83.4200 83.5800 83.4800 83.5300 84.7495 14.5518 0.215501 
D04 157.410 220.050 207.490 55.4102 65.7422 55.0198 11.9600 19.7400 36.4300 53.9400 60.6700 62.2400 63.4000 64.9800 67.3600 69.8600 71.6000 72.7000 73.3900 75.1000 77.1900 77.1100 75.5600 72.9200 69.3900 65.8200 61.5400 56.8600 52.1200 48.6100 46.6200 45.4900 44.7200 44.1000 44.1300 44.8200 46.0400 47.2200 48.1200 48.2800 47.4900 47.1000 84.8647 -19.0641 -0.839361 
D05 246.790 197.600 194.760 70.0574 66.3129 48.5431 11.7400 19.4000 35.6900 51.9200 57.4800 58.5200 59.3000 59.7000 59.5900 59.0800 58.4800 58.2700 58.3100 58.0300 57.7400 58.4300 59.4600 59.2900 59.8900 64.4800 71.0000 76.5700 79.9900 81.8200 82.7300 83.1700 83.6500 84.1600 84.8400 85.1200 85.6100 86.2500 87.0200 87.7800 88.2200 88.7100 85.1558 13.4864 6.80728 
D06 212.800 210.610 152.300 57.6959 64.3990 32.0593 8.78000 14.9100 26.0500 33.8900 35.3800 35.4400 35.6000 36.0100 36.7600 38.1100 41.2500 47.3800 55.5200 62.5500 66.4500 67.7300 68.2200 68.5800 68.8900 69.1200 67.9100 65.6100 62.5700 60.1000 58.7400 58.0200 57.6000 57.3300 57.7500 58.6800 59.9600 61.1100 61.9600 62.2400 61.6900 61.4800 84.1731 -10.4440 26.7588 
D07 221.460 114.990 79.2200 37.8661 30.1027 9.59411 6.12000 8.60000 10.9600 11.7100 11.6300 11.5200 11.4700 11.4900 11.5200 11.4800 11.4100 11.4000 11.6900 13.0700 15.1900 16.4600 17.4900 19.6500 24.5200 32.8200 41.7600 48.3200 51.7200 53.1000 53.5100 53.4700 53.3800 53.2500 53.2000 52.9000 52.6500 52.4300 52.2800 52.1700 51.9100 51.7400 61.7428 31.0564 36.4135 
D08 204.430 131.530 115.330 38.2069 33.2631 17.6698 6.86000 10.4000 14.8300 16.8700 17.1900 17.4400 17.9200 18.8400 20.5400 23.3000 26.9200 30.0600 31.9100 32.2200 29.6200 25.4900 23.7700 24.7400 24.9400 25.5300 30.7700 40.1500 48.6100 53.7200 56.3100 57.4800 58.1600 58.6000 59.0700 59.2700 59.5400 59.8000 60.1100 60.3800 60.3900 60.4200 64.3734 20.8130 18.9081 
D09 -12.9600 133.750 86.1000 9.75293 18.7504 10.2708 3.37000 4.70000 5.97000 6.56000 6.88000 7.26000 7.85000 8.77000 10.3700 13.6200 19.1000 24.7700 29.2900 32.2800 33.4700 32.3200 28.9500 24.1800 19.0800 14.8800 11.5900 8.87000 6.49000 4.76000 3.79000 3.30000 2.98000 2.74000 2.59000 2.54000 2.59000 2.74000 2.95000 3.13000 3.16000 3.18000 50.3939 -53.2144 14.6031 
D10 243.320 244.660 241.990 87.4884 91.2350 74.5291 12.7000 20.7000 39.9400 66.6600 84.6000 89.7200 90.7200 91.1700 91.5500 91.6300 91.6300 91.7400 91.7000 91.6500 91.6200 91.3600 91.5700 91.7600 91.3800 91.3600 91.0300 90.9200 90.6600 90.4400 90.3700 90.2900 90.4500 90.6600 90.9600 90.6400 90.4400 90.4300 90.4900 90.5400 90.5100 90.8200 96.5067 -0.884385 0.629792 
E01 110.190 110.390 110.170 17.5155 18.2022 15.0076 7.07000 10.8300 15.2100 17.2800 17.6800 17.9400 18.3300 18.5400 18.4400 18.1800 17.9700 17.8700 17.8700 17.9700 18.0900 18.1500 18.2000 18.2100 18.2400 18.4500 18.5700 18.5800 18.4500 18.2400 17.9800 17.7000 17.4600 17.2200 17.0200 16.7700 16.5200 16.2900 16.0900 15.9000 15.6800 15.4900 49.7404 -0.188455 0.0186339 
E02 106.390 55.5900 38.7000 8.80190 7.04580 2.29720 1.91000 2.31000 2.61000 2.68000 2.69000 2.69000 2.70000 2.72000 2.75000 2.75000 2.77000 2.81000 2.96000 3.47000 4.17000 4.48000 4.62000 4.94000 5.65000 6.93000 8.52000 10.0600 11.4400 12.5500 13.2000 13.4400 13.5400 13.6200 13.7200 13.7600 13.8100 13.8600 13.9100 13.9500 13.9600 13.9900 31.9109 18.6207 21.9833 
E03 238.150 104.120 -0.230000 38.8989 28.9587 2.38070 2.32000 2.37000 2.42000 2.42000 2.41000 2.42000 2.46000 2.52000 2.60000 2.69000 2.86000 3.14000 3.74000 5.81000 9.90000 13.0500 14.6400 16.6800 21.4400 30.5900 42.5100 53.2100 58.4000 58.9400 58.3300 57.8300 57.4700 57.1800 57.7500 59.2000 61.3300 63.4300 65.1300 65.8700 65.3700 65.3600 60.7451 38.6557 70.9716 
E04 -18.9200 38.6500 127.130 4.10392 2.82990 17.7244 2.50000 3.72000 5.80000 9.49000 15.1500 19.6900 23.9500 27.2200 26.3100 22.8400 18.2400 12.9300 8.53000 5.68000 3.65000 2.40000 1.84000 1.52000 1.30000 1.18000 1.14000 1.12000 1.11000 1.11000 1.13000 1.20000 1.29000 1.41000 1.53000 1.54000 1.40000 1.30000 1.30000 1.39000 1.57000 1.91000 19.3494 22.2064 -58.8426 
E05 242.980 244.340 241.610 87.5166 91.2721 74.5977 12.7300 20.7000 39.9500 66.7200 84.6700 89.8200 90.8200 91.2600 91.6300 91.7100 91.7100 91.8000 91.7600 91.7100 91.6700 91.4100 91.6200 91.8000 91.4200 91.4000 91.0600 90.9400 90.6800 90.4600 90.3800 90.2900 90.4400 90.6400 90.9400 90.6100 90.4100 90.4100 90.4500 90.5000 90.4500 90.7500 96.5220 -0.898154 0.596792 
E06 25.5000 26.2200 27.0000 0.711248 0.737633 0.624433 0.690000 0.720000 0.750000 0.750000 0.760000 0.770000 0.770000 0.760000 0.760000 0.750000 0.740000 0.740000 0.740000 0.740000 0.740000 0.740000 0.740000 0.740000 0.730000 0.740000 0.740000 0.740000 0.740000 0.740000 0.730000 0.720000 0.720000 0.720000 0.710000 0.710000 0.710000 0.700000 0.700000 0.690000 0.700000 0.690000 6.66301 8.95703e-04 -0.301326 
E07 246.650 165.750 140.480 56.9630 50.7184 26.3871 8.02000 13.9600 24.1600 30.7200 31.6300 31.4000 31.5100 31.6800 31.9700 32.5100 32.6700 31.8900 31.6600 33.9800 36.1900 35.4500 35.6400 40.6600 51.1300 59.6300 62.9000 64.9600 67.3200 69.8600 71.6700 72.6700 73.4300 74.0300 74.6300 74.7500 74.9300 75.1900 75.5300 75.9000 76.0500 76.3600 76.5081 20.8031 22.7153 
E08 251.260 148.160 128.550 53.8976 44.8509 22.0939 7.47000 12.9900 22.0000 27.2600 27.5000 26.8800 26.7500 26.6000 26.6400 27.2000 27.2900 25.9900 25.2000 26.5100 27.0500 25.4300 25.4400 30.7300 43.1600 54.8500 59.7300 62.3900 65.5300 69.0700 71.6300 72.9900 73.9300 74.6200 75.2400 75.3600 75.5200 75.7600 76.0900 76.4400 76.5900 76.8700 72.7936 29.1489 24.1725 
E09 -0.690000 52.4700 35.8100 2.32719 3.60638 2.26525 1.44000 1.68000 1.89000 1.97000 2.02000 2.08000 2.15000 2.26000 2.48000 2.89000 3.60000 4.28000 4.83000 5.43000 5.90000 5.72000 5.12000 4.34000 3.54000 2.92000 2.46000 2.12000 1.88000 1.72000 1.63000 1.59000 1.56000 1.56000 1.55000 1.56000 1.56000 1.58000 1.61000 1.61000 1.60000 1.61000 22.3250 -20.6972 5.73807 
E10 110.510 110.710 110.440 17.4822 18.1669 14.9849 7.07000 10.8200 15.2000 17.2700 17.6500 17.9200 18.3100 18.5100 18.4100 18.1500 17.9400 17.8400 17.8400 17.9300 18.0600 18.1200 18.1600 18.1800 18.2000 18.4100 18.5300 18.5500 18.4100 18.2000 17.9500 17.6700 17.4200 17.1900 16.9900 16.7300 16.4900 16.2600 16.0600 15.8600 15.6400 15.4600 49.6979 -0.185023 2.33473e-03 
F01 24.2300 24.8800 25.5600 0.696267 0.723429 0.629415 0.680000 0.770000 0.780000 0.770000 0.780000 0.780000 0.780000 0.770000 0.760000 0.750000 0.750000 0.740000 0.740000 0.730000 0.730000 0.730000 0.730000 0.720000 0.720000 0.720000 0.730000 0.720000 0.720000 0.710000 0.710000 0.700000 0.700000 0.690000 0.690000 0.690000 0.680000 0.670000 0.670000 0.670000 0.670000 0.670000 6.53470 -0.0510031 -0.616588 
F02 200.330 129.240 112.470 36.7527 32.0993 16.8218 6.15000 9.32000 13.1800 14.9600 15.3600 15.7700 16.4100 17.5100 19.4600 22.5900 26.6800 30.2300 32.3000 32.5300 29.3800 24.6200 22.7500 23.8300 23.7400 23.9400 28.8500 38.0800 46.5400 51.2800 53.7600 55.3400 56.8900 58.6600 60.9100 63.3600 66.3900 69.8700 73.5500 77.0300 79.7000 81.8700 63.4249 20.1815 19.2185 
F03 -15.4100 72.4200 153.020 9.53706 8.47073 27.4163 5.78000 10.2900 17.2300 23.8600 30.5800 34.6300 36.7700 37.5300 36.9700 34.5900 30.1200 24.1900 18.5300 14.1600 10.9200 8.69000 7.42000 6.62000 5.96000 5.54000 5.35000 5.33000 5.34000 5.31000 5.29000 5.41000 5.82000 6.53000 7.56000 8.97000 11.0000 13.8200 17.5100 21.8700 26.2500 30.4500 34.9446 11.6456 -50.7014 
F04 59.9400 134.130 50.2600 11.9191 20.1686 4.94430 1.94000 2.11000 2.25000 2.32000 2.38000 2.52000 2.76000 3.20000 4.05000 5.66000 8.76000 14.1500 21.3400 27.6200 30.5400 30.5100 29.0900 26.7800 23.9000 20.9000 17.3500 13.4600 10.0100 7.78000 6.65000 6.07000 5.70000 5.40000 5.31000 5.49000 5.87000 6.37000 6.89000 7.19000 7.08000 7.01000 52.0273 -44.1472 39.0180 
F05 191.530 190.970 191.240 53.7940 55.6700 46.0762 8.51000 15.5300 31.7100 48.8100 54.9500 55.8600 56.1200 56.2500 56.3200 56.1800 56.0300 55.9400 55.7900 55.6700 55.6100 55.3900 55.3600 55.3700 55.3300 55.7000 55.8900 56.0900 56.0900 56.0100 55.8800 55.6900 55.6400 55.6200 55.6800 55.4700 55.3200 55.1800 55.1100 55.0600 54.8500 54.7600 79.4256 0.298671 -0.183697 
F06 64.9500 65.6900 66.0600 6.26604 6.51159 5.47863 3.48000 4.78000 5.89000 6.33000 6.45000 6.58000 6.73000 6.79000 6.73000 6.61000 6.52000 6.48000 6.47000 6.49000 6.51000 6.51000 6.50000 6.50000 6.50000 6.58000 6.63000 6.64000 6.59000 6.50000 6.39000 6.29000 6.19000 6.11000 6.05000 5.96000 5.87000 5.79000 5.73000 5.66000 5.59000 5.52000 30.6681 -0.132923 -0.531840 
F07 194.160 133.300 100.680 35.2530 32.3091 14.1676 5.08000 7.76000 10.9900 12.5600 13.0700 13.5700 14.2500 15.2300 16.6900 18.7100 21.1800 23.5500 25.3700 26.5500 27.0000 27.1600 27.7000 28.2700 28.3200 28.2800 30.7900 38.0300 44.0900 46.9400 48.5100 49.6200 50.6600 51.6000 52.5600 53.1800 53.8300 54.5100 55.2400 55.9700 56.5000 57.0900 63.5975 14.4377 26.0652 
F08 192.460 136.270 117.910 36.2585 33.2532 18.4973 5.91000 8.97000 13.0900 15.6200 16.9700 18.6500 21.0800 23.0700 23.6900 23.6900 23.7200 24.0200 24.6500 25.8200 27.2800 28.2600 29.1700 30.7300 32.5500 33.2100 32.5500 32.9500 36.4900 43.1200 49.6000 53.6000 55.6900 56.9500 58.3800 59.9100 61.7600 63.6400 65.3200 66.5300 67.0400 67.9200 64.3654 14.4949 17.0546 
F09 -1.81000 157.600 120.440 17.5377 28.1320 18.9885 5.18000 7.85000 11.0400 12.8700 13.8300 14.8800 16.2500 18.3300 21.7500 26.7600 32.8000 38.8100 42.6900 43.8400 43.2400 41.3100 38.4200 34.5400 30.0500 25.6600 21.1800 16.8100 13.0200 10.6200 9.47000 8.96000 8.66000 8.46000 8.63000 9.26000 10.1800 11.0900 11.7800 11.9800 11.6000 11.5200 60.0078 -44.3251 8.47528 
