data-examples/ccsg_ref-new.cie
CTI3   

DESCRIPTOR "Argyll Calibration Target chart information 3"
ORIGINATOR "X-Rite ColorChecker SG November 2014 and newer"
CREATED "Thu Oct 29 18:41:35 2015"
KEYWORD "DEVICE_CLASS"
DEVICE_CLASS "INPUT"
KEYWORD "COLOR_REP"
COLOR_REP "RGB_XYZ"
KEYWORD "SPECTRAL_BANDS"
SPECTRAL_BANDS "36"
KEYWORD "SPECTRAL_START_NM"
SPECTRAL_START_NM "380.000000"
KEYWORD "SPECTRAL_END_NM"
SPECTRAL_END_NM "730.000000"

KEYWORD "SAMPLE_CLASS"
KEYWORD "SAMPLE_TYPE"
KEYWORD "SPEC_380"
KEYWORD "SPEC_390"
KEYWORD "SPEC_400"
KEYWORD "SPEC_410"
KEYWORD "SPEC_420"
KEYWORD "SPEC_430"
KEYWORD "SPEC_440"
KEYWORD "SPEC_450"
KEYWORD "SPEC_460"
KEYWORD "SPEC_470"
KEYWORD "SPEC_480"
KEYWORD "SPEC_490"
KEYWORD "SPEC_500"
KEYWORD "SPEC_510"
KEYWORD "SPEC_520"
KEYWORD "SPEC_530"
KEYWORD "SPEC_540"
KEYWORD "SPEC_550"
KEYWORD "SPEC_560"
KEYWORD "SPEC_570"
KEYWORD "SPEC_580"
KEYWORD "SPEC_590"
KEYWORD "SPEC_600"
KEYWORD "SPEC_610"
KEYWORD "SPEC_620"
KEYWORD "SPEC_630"
KEYWORD "SPEC_640"
KEYWORD "SPEC_650"
KEYWORD "SPEC_660"
KEYWORD "SPEC_670"
KEYWORD "SPEC_680"
KEYWORD "SPEC_690"
KEYWORD "SPEC_700"
KEYWORD "SPEC_710"
KEYWORD "SPEC_720"
KEYWORD "SPEC_730"
NUMBER_OF_FIELDS 48
BEGIN_DATA_FORMAT
SAMPLE_ID XYZ_X XYZ_Y XYZ_Z SPEC_380 SPEC_390 SPEC_400 SPEC_410 SPEC_420 SPEC_430 SPEC_440 SPEC_450 SPEC_460 SPEC_470 SPEC_480 SPEC_490 SPEC_500 SPEC_510 SPEC_520 SPEC_530 SPEC_540 SPEC_550 SPEC_560 SPEC_570 SPEC_580 SPEC_590 SPEC_600 SPEC_610 SPEC_620 SPEC_630 SPEC_640 SPEC_650 SPEC_660 SPEC_670 SPEC_680 SPEC_690 SPEC_700 SPEC_710 SPEC_720 SPEC_730 LAB_L LAB_A LAB_B 
END_DATA_FORMAT

NUMBER_OF_SETS 140
BEGIN_DATA
A01 87.3309 90.9035 73.0337 11.9231 19.3254 38.6931 65.7139 83.2569 87.6001 88.5493 89.1610 89.6041 89.8939 90.0316 90.3253 90.5200 90.6525 90.9341 90.9787 91.0528 91.0809 90.8764 91.0907 91.0018 91.0098 90.9107 90.9902 90.9385 90.8238 90.9084 91.0520 91.1162 90.9372 90.9287 90.8362 90.8915 90.9734 90.8170 90.8261 96.3703 -0.586978 1.69651 
A02 0.960760 0.990637 0.885753 1.52870 1.17660 1.22460 1.11360 1.16690 1.10840 1.11400 1.08630 1.05760 1.04120 1.03420 1.02730 1.02320 1.00280 1.00710 0.987400 0.999000 0.977700 0.990000 0.979600 0.984300 0.972300 0.987800 0.977400 0.983700 0.976400 0.979600 0.986300 0.985900 1.00830 0.956700 0.998900 0.966800 0.970200 1.05150 0.945300 8.91320 0.208998 -1.16942 
A03 17.4448 18.0363 14.7047 6.37790 10.3835 14.6274 16.8630 17.2798 17.5964 17.8265 18.0929 18.0201 17.9061 17.7346 17.6983 17.6897 17.7610 17.8415 17.8822 17.8951 17.9516 17.9817 18.2271 18.3454 18.4335 18.3560 18.2739 18.1168 17.9525 17.8390 17.7120 17.5984 17.4393 17.3186 17.2007 17.0709 17.0027 16.8493 16.8576 49.5401 0.293469 0.440709 
A04 87.2125 90.7875 72.8640 11.8366 19.3679 38.4904 65.4906 82.9731 87.3241 88.2878 88.9491 89.3885 89.7347 89.8767 90.2156 90.3895 90.5546 90.8298 90.8468 90.9322 90.9613 90.7674 90.9687 90.8800 90.8831 90.7929 90.8718 90.8722 90.7519 90.8236 90.9913 90.9908 90.8722 90.7971 90.7929 90.8101 90.8701 90.8280 90.5926 96.3225 -0.599534 1.76288 
A05 0.938969 0.968621 0.864739 1.16390 1.20470 1.15720 1.15310 1.09260 1.09650 1.07450 1.05780 1.03730 1.02940 1.01130 0.996800 0.994800 0.985600 0.977300 0.978300 0.963800 0.971500 0.950700 0.970400 0.953900 0.963000 0.958900 0.958500 0.954500 0.954700 0.961700 0.958200 0.970300 0.962900 0.971400 0.961600 0.960700 0.981300 0.953200 1.00190 8.72726 0.190802 -1.13828 
A06 17.4719 18.0658 14.7046 6.60390 10.2849 14.5764 16.8641 17.2534 17.5670 17.8637 18.0853 18.0062 17.8970 17.7491 17.7119 17.7143 17.7750 17.8609 17.9143 17.9397 17.9770 18.0220 18.2477 18.3777 18.4618 18.3961 18.2936 18.1577 17.9940 17.8620 17.7637 17.6408 17.5006 17.3697 17.2353 17.1065 17.0244 16.9308 16.8099 49.5759 0.285636 0.502849 
A07 87.1836 90.7562 72.8364 11.7286 19.3383 38.3834 65.2610 82.8305 87.2942 88.3079 88.9361 89.3518 89.6937 89.8279 90.1693 90.3439 90.5248 90.7682 90.8182 90.9147 90.9340 90.7303 90.9367 90.8783 90.8459 90.7577 90.8336 90.8330 90.7230 90.8149 90.9380 90.9790 90.8580 90.7946 90.7447 90.7058 90.8067 90.7307 90.6620 96.3095 -0.597319 1.76480 
A08 0.974606 1.00614 0.907388 1.29080 1.16100 1.21550 1.18130 1.15800 1.15170 1.12160 1.12530 1.08560 1.07260 1.05660 1.05290 1.03680 1.02650 1.02390 1.02280 0.997200 1.01090 0.995800 0.999400 0.980600 0.993200 0.993000 0.993700 0.981900 0.992100 0.995700 1.00360 1.00960 1.02070 1.01790 1.03210 1.04140 1.04150 1.09050 1.05040 9.04251 0.166019 -1.30282 
A09 17.4605 18.0474 14.6928 6.49320 10.1942 14.5724 16.8413 17.2872 17.5206 17.8808 18.0575 18.0098 17.8625 17.7381 17.6778 17.6870 17.7420 17.8502 17.8811 17.9129 17.9511 18.0033 18.2269 18.3747 18.4429 18.3853 18.2862 18.1445 17.9846 17.8808 17.7609 17.6388 17.4895 17.3506 17.2404 17.1187 17.0251 16.9227 16.8966 49.5535 0.320215 0.494261 
A10 87.1574 90.7351 72.8025 11.7265 19.3600 38.5361 65.3909 82.8714 87.2497 88.2303 88.8666 89.3076 89.6630 89.7874 90.1547 90.3228 90.5138 90.7833 90.8226 90.8681 90.9095 90.7012 90.9369 90.8124 90.8435 90.7327 90.8308 90.8141 90.6987 90.7305 90.9173 90.9463 90.8367 90.7668 90.7143 90.6878 90.8368 90.7995 90.6972 96.3009 -0.608228 1.77960 
B01 17.4378 18.0252 14.6887 7.01970 10.1092 14.6848 16.8008 17.2205 17.5941 17.8475 18.0544 17.9893 17.8875 17.7054 17.6894 17.6720 17.7426 17.8257 17.8514 17.8966 17.9293 17.9811 18.2007 18.3549 18.4103 18.3627 18.2538 18.1317 17.9546 17.8315 17.7230 17.5993 17.4577 17.3152 17.1850 17.0997 17.0312 16.8832 16.8471 49.5267 0.313097 0.458379 
B02 13.3357 7.15287 8.78250 6.37800 9.15370 14.6161 17.3435 17.1781 15.8517 13.7760 11.6496 9.74260 8.23890 6.74800 5.40730 4.49110 3.84070 3.04920 2.32230 2.08470 2.16960 2.18510 2.26150 3.20070 5.99040 11.3185 18.1537 24.4315 29.4085 33.6589 37.8320 42.3933 47.4062 52.8873 58.5506 64.0849 69.0810 73.2308 76.5107 32.1524 51.0213 -11.7700 
B03 35.3990 29.0720 35.9190 8.84990 16.3218 31.1750 45.1210 49.0412 49.1021 48.0032 46.2846 44.1534 41.8376 38.8847 35.3414 32.2200 29.5754 25.8515 21.9187 20.4242 21.2266 21.2464 21.5712 25.8739 33.5358 40.4879 44.1210 44.5068 44.3987 46.2070 49.4634 52.7705 54.9884 56.2927 57.0455 57.4937 57.8121 57.8864 57.9017 60.8451 26.7944 -19.0986 
B04 11.2863 5.91017 18.1542 15.2810 20.5822 28.1837 31.6033 32.2738 31.6246 28.8016 25.2181 21.3252 17.7490 13.8558 9.94660 7.23580 5.27260 3.18020 1.77480 1.48120 1.60480 1.62740 1.71410 2.99400 6.38260 10.2057 12.9117 14.8109 16.6711 19.0804 22.3344 26.4329 31.5247 37.6254 44.6789 52.1515 59.4622 65.5938 70.5511 29.1847 49.8242 -42.8458 
B05 14.7031 18.0709 43.3715 7.43640 13.6089 25.3325 37.2402 42.1885 45.8630 51.0030 56.6451 58.6570 58.0099 55.0636 50.4010 44.6182 38.3298 32.0159 25.9694 20.7297 16.1443 12.2384 9.61180 8.18850 7.45930 6.86770 6.39870 6.30170 6.60810 7.15450 7.83550 8.48380 8.69590 8.18900 7.56390 7.14730 7.09140 7.56300 8.61950 49.5820 -15.5544 -48.3501 
B06 20.9256 29.1044 41.6461 8.12890 14.8798 27.1022 38.0080 41.3628 43.4804 46.2938 49.3582 52.1316 55.2049 57.8857 59.2904 58.0790 54.2590 48.6305 42.4070 36.3926 30.5170 24.6657 20.0299 16.9042 15.0315 13.5730 12.3917 11.8910 11.6860 11.7554 12.2032 13.0243 13.4359 13.0759 12.3565 11.3873 10.5736 10.9633 12.6619 60.8736 -30.8776 -26.7123 
B07 1.79823 3.15552 3.50409 1.81220 2.02000 2.36300 2.40150 2.46990 2.63340 2.78080 3.09370 3.64920 4.90490 6.99000 8.77120 9.27300 8.32920 6.34060 4.47640 3.41900 2.74900 2.12350 1.72220 1.54310 1.40410 1.25040 1.13720 1.06760 1.03430 1.02350 1.01190 1.00210 1.01420 0.981300 1.02030 1.01890 1.07480 1.09420 1.15700 20.6563 -25.4055 -6.58334 
B08 18.6963 28.9062 31.0404 7.68000 12.1718 19.2267 24.0389 26.1163 28.1038 30.4482 33.5636 37.9678 43.9657 49.1878 52.3372 52.8217 51.2582 48.2006 43.8654 38.7666 32.9384 26.7757 21.7323 17.8626 14.9489 12.4108 10.6773 9.84320 9.44290 9.24200 9.20550 9.49190 9.97960 10.4646 10.7282 10.7507 10.4600 10.5862 11.0764 60.6987 -41.1972 -12.1513 
B09 2.89723 2.89557 1.27202 1.28130 1.39760 1.38460 1.46290 1.44290 1.43590 1.46800 1.45720 1.49560 1.55520 1.62280 1.69610 1.78310 1.98210 2.28880 2.64610 2.86300 2.95300 3.03110 3.16910 3.30830 3.39660 3.42060 3.39840 3.35330 3.28710 3.24330 3.21450 3.17890 3.17060 3.10790 3.09590 3.06150 3.04670 3.05150 3.06710 19.6207 1.90692 11.6344 
B10 17.2842 17.8880 14.6144 6.56180 10.1240 14.5167 16.7512 17.1743 17.4584 17.7572 17.9651 17.9156 17.7849 17.6350 17.5869 17.5880 17.6454 17.7214 17.7510 17.7835 17.8086 17.8576 18.0506 18.2000 18.2415 18.1860 18.0796 17.9219 17.7572 17.6303 17.5034 17.3556 17.2308 17.0429 16.9304 16.8149 16.7435 16.6123 16.4395 49.3600 0.198933 0.361295 
C01 0.858195 0.884093 0.735766 0.924700 0.939600 0.882400 0.948800 0.890900 0.911500 0.907500 0.884700 0.899300 0.867800 0.886700 0.877000 0.887200 0.873700 0.890100 0.872600 0.874900 0.879600 0.882300 0.890700 0.881700 0.883200 0.887400 0.896300 0.894300 0.901600 0.894500 0.903500 0.903500 0.907100 0.896400 0.899400 0.893800 0.918900 0.891900 0.893600 7.98598 0.232017 -0.122058 
C02 4.20564 3.02679 5.57570 4.60530 6.45180 7.91150 8.48210 8.49190 8.27020 7.93250 7.39090 6.82720 6.16940 5.39600 4.50320 3.77000 3.19570 2.49400 1.92220 1.72670 1.80600 1.85300 1.96120 2.46020 3.38150 4.15410 4.63890 5.05190 5.50140 6.13010 6.87100 7.85370 8.96220 10.1928 11.4702 12.7783 13.9238 14.9533 15.5849 20.1509 20.1823 -19.1406 
C03 14.6408 12.2880 26.5196 7.26940 12.6213 22.9643 31.2444 34.3064 35.7589 36.3706 35.8327 34.0563 31.4176 27.8452 23.1453 18.7692 15.5685 12.7368 10.5778 9.78230 9.60640 9.16420 8.88710 9.64310 11.3757 13.0751 13.3295 12.2923 12.0587 13.9539 17.8709 23.1179 27.9733 30.9383 32.2941 33.6532 35.6709 38.0463 40.8266 41.6703 18.1700 -37.5784 
C04 2.99112 3.14882 9.97345 3.04230 4.69910 6.77720 8.65140 9.65250 10.4717 11.8345 13.4456 13.9343 13.4356 12.3401 10.7011 8.92620 7.13580 5.33680 3.85970 2.90970 2.27230 1.78670 1.52830 1.40230 1.36920 1.33940 1.31160 1.35340 1.41590 1.53300 1.63710 1.68190 1.65550 1.51730 1.43910 1.44990 1.52940 1.63940 1.78120 20.6303 -0.783512 -35.7401 
C05 22.7467 28.1868 44.3016 9.00830 15.3913 29.4263 42.4423 47.1877 49.2861 51.5798 54.4374 56.3661 57.6986 57.8769 56.3337 53.4989 49.6315 44.4869 38.4641 33.0383 27.9670 22.8451 19.1073 17.3359 16.5788 15.7092 14.9330 14.8475 15.8323 17.4125 18.8842 19.7391 19.5829 18.2794 16.9452 16.5746 17.2125 18.2266 19.5135 60.0571 -18.8832 -31.4355 
C06 1.93812 2.97491 5.95586 1.82110 2.61160 3.46340 4.24920 4.37500 4.81770 5.50660 6.37170 7.32780 8.89810 10.6835 11.2320 10.3069 8.32570 6.03490 4.13390 2.84720 2.04710 1.51790 1.24720 1.09840 1.02090 0.977800 0.943800 0.929600 0.898800 0.891400 0.851600 0.883100 0.852900 0.848500 0.854300 0.894500 0.918000 1.12150 1.18150 19.9431 -18.9788 -21.3098 
C07 26.2555 28.7539 46.0750 9.18130 16.6135 32.1466 47.8727 53.5076 55.4084 57.0476 58.3904 58.4617 57.6246 55.6421 52.4680 48.9647 45.2227 39.7510 33.6057 29.8146 27.6216 24.2120 21.3803 20.8130 21.0733 20.6325 19.9804 20.1537 21.4216 23.2913 25.1641 26.5581 26.6013 25.0252 23.2616 22.4696 22.6890 23.7301 25.6906 60.5638 -5.93494 -32.7026 
C08 10.1351 18.2060 19.4874 4.82880 7.52700 10.4946 12.5016 13.5993 14.8181 16.5492 19.0095 22.8865 28.8657 35.1230 40.1277 41.6089 39.6331 35.4035 30.0260 24.4891 19.2293 14.6088 11.2666 8.91910 7.19310 5.77520 4.87200 4.42200 4.20490 4.06980 4.02440 4.11350 4.37000 4.60000 4.76680 4.78230 4.71200 4.64850 4.86760 49.7450 -47.4134 -10.2833 
C09 18.6262 28.6113 14.2406 5.01230 6.91960 8.86000 9.67850 10.1646 10.7409 11.6395 13.0542 15.3506 19.1493 24.8439 31.3444 36.7563 39.5853 40.1053 39.2619 37.7266 35.4613 32.3430 28.9725 25.3164 21.3461 17.0224 13.3113 10.9355 9.57970 8.69660 7.92000 7.39220 7.25840 7.49990 7.96280 8.67060 9.34660 9.53610 9.45700 60.4371 -40.4315 20.4256 
C10 0.956931 0.988472 0.886788 0.905500 1.18570 1.14210 1.19170 1.16320 1.08410 1.12430 1.07620 1.06230 1.04950 1.04450 1.04180 1.01220 1.00850 1.00650 0.992400 0.994500 0.975300 0.985400 0.974400 0.983000 0.978400 0.977900 0.970600 0.969600 0.981000 0.963100 0.991500 0.960000 0.987100 0.971300 0.995700 0.957100 0.991900 0.991800 0.983700 8.89504 0.144172 -1.21792 
D01 87.4170 90.9798 73.1254 11.8143 19.6353 38.8883 65.9910 83.4190 87.7595 88.6317 89.2856 89.6829 90.0197 90.1160 90.4441 90.6013 90.7454 91.0073 91.0415 91.1066 91.1440 90.9286 91.1742 91.0669 91.0892 90.9906 91.0841 91.0501 90.9386 91.0163 91.1725 91.1990 91.0745 91.0227 90.9211 90.9587 91.0221 90.9978 90.7881 96.4017 -0.563343 1.67028 
D02 60.5087 63.6052 60.6156 10.4536 18.6550 36.7790 58.8578 68.9232 71.4102 73.4827 75.0221 75.3709 75.1079 74.4225 73.6690 72.9248 72.0659 69.8699 66.2927 64.0713 63.1787 60.7710 58.6335 59.0059 60.2289 60.2120 59.6862 59.9781 61.4363 63.4907 65.5167 66.8800 66.8670 65.3365 63.6892 62.9674 63.3416 64.4748 66.4816 83.7598 -1.92372 -8.47845 
D03 70.6032 66.0732 54.2178 10.3775 18.3925 36.5288 57.1980 65.1518 66.3231 66.7467 66.8783 66.5903 66.1051 65.2773 64.3396 63.4188 62.5512 60.6915 57.8486 56.7228 57.9898 58.7217 60.3971 66.3346 74.6223 80.3900 83.3527 84.7120 85.2831 85.7353 86.1464 86.4096 86.5023 86.6440 86.7724 86.9250 87.2379 87.2811 87.2356 85.0337 15.1768 0.305181 
D04 54.3069 64.8013 54.2792 10.1775 18.0468 34.8050 52.2412 58.6648 60.3191 61.7499 63.5445 66.1468 69.5350 72.4062 74.2524 74.7399 75.0508 75.6898 75.6046 74.2462 71.7977 68.4992 65.0489 60.8317 55.9724 50.8785 47.1771 45.0973 44.0330 43.3231 42.7620 42.9315 44.1692 45.8935 47.4717 48.7216 48.9995 48.0522 47.2461 84.3812 -19.7576 -0.885450 
D05 68.4630 64.7646 47.1364 9.56770 17.4472 34.5502 51.7528 57.2345 57.5355 57.4348 57.4540 57.3341 57.2934 57.1065 56.9874 56.8895 56.7730 56.6956 56.4288 56.6506 57.7639 59.7767 63.7793 69.1943 74.5361 78.0362 80.0035 81.0125 81.4521 81.9773 82.4593 82.9174 83.1829 83.5395 83.8905 84.2356 84.6824 84.8464 84.9266 84.3623 13.4705 7.07393 
D06 56.9354 63.9296 31.6504 9.16810 15.2894 25.5832 32.3301 33.4132 33.6774 34.0735 35.0493 36.8684 40.0177 44.1667 47.7544 50.2528 53.4644 59.4943 66.6056 70.1074 70.8893 71.0386 71.4196 70.7017 68.3327 63.9173 58.9105 54.8884 52.1740 50.0802 48.1575 46.7720 46.3199 46.7735 47.9261 49.6789 51.3493 52.0214 52.1669 83.9291 -11.2516 26.9614 
D07 37.9246 30.2225 9.75533 4.95240 7.50270 10.0947 11.3329 11.3917 11.4535 11.5330 11.6749 11.7769 11.8018 11.8071 11.8879 12.2136 13.5803 15.6202 16.8513 17.8238 19.8387 24.4701 32.4920 41.3396 48.0593 51.6195 53.1966 53.7433 53.8113 53.8852 53.8931 53.8426 53.6276 53.4521 53.3004 53.2003 53.1521 53.0511 52.7823 61.8457 30.8013 36.0472 
D08 37.5719 32.5902 17.1507 6.82940 9.96410 13.6318 15.3142 15.6557 16.1392 16.8762 18.2037 20.2820 23.1408 26.4915 29.7262 31.8232 31.9445 29.0005 24.7223 22.9517 23.9354 24.0440 24.5318 29.9298 39.5478 48.1370 53.4269 56.0093 57.1065 57.6044 57.8240 57.8335 57.6003 57.3053 57.0412 57.0752 57.1483 56.9993 56.8739 63.8277 21.1189 19.1508 
D09 9.84665 18.8678 10.5442 4.33040 5.49560 6.63660 7.23490 7.44270 7.82700 8.37480 9.28480 10.9381 14.1074 19.0305 23.9615 28.0279 31.2792 33.4315 33.1312 29.8779 24.7886 19.3676 14.9075 11.4812 8.74550 6.37510 4.70800 3.74680 3.26140 2.91890 2.68620 2.52460 2.45050 2.46780 2.54490 2.74200 2.88270 3.01970 3.07030 50.5322 -53.0668 13.9631 
D10 87.3099 90.8738 72.9689 12.1323 19.5923 38.6094 65.8033 83.1337 87.5598 88.4549 89.0248 89.5287 89.8111 89.9738 90.3117 90.4878 90.6619 90.8736 90.9173 91.0176 91.0196 90.8504 91.0636 90.9526 90.9916 90.9084 90.9876 90.9544 90.8651 90.9189 91.0567 91.1166 90.9910 90.9599 90.8667 90.8708 90.9449 91.0187 90.7068 96.3581 -0.573091 1.73220 
E01 17.4591 18.0470 14.7039 6.61880 10.2615 14.6616 16.8639 17.2814 17.5442 17.8882 18.0592 18.0277 17.8863 17.7497 17.7025 17.7012 17.7676 17.8417 17.8769 17.9110 17.9450 18.0036 18.2287 18.3729 18.4461 18.3751 18.2805 18.1473 17.9762 17.8669 17.7495 17.6315 17.4792 17.3445 17.2252 17.0967 17.0359 16.9154 16.8627 49.5531 0.314377 0.465223 
E02 9.10668 7.21219 2.40331 1.83520 2.73740 2.84720 2.80980 2.88200 2.78570 2.81310 2.85450 2.80190 2.84410 2.85770 2.91490 3.20070 3.96660 5.09190 5.61600 5.81720 5.86600 5.75050 5.76760 6.12530 7.16710 9.16150 12.8769 16.3595 17.5612 17.8542 18.0441 18.1155 18.2695 18.3607 18.5483 18.6781 18.8059 19.0209 18.9424 32.2852 19.5767 21.7090 
E03 40.2932 30.0135 2.96454 2.61320 2.71660 2.74130 2.72960 2.69120 2.66990 2.63270 2.73180 3.05820 3.80810 4.88300 5.56740 5.91120 6.64500 8.84690 12.2433 14.6774 17.2275 22.6236 32.6340 44.8181 54.8779 59.7828 60.9086 60.6264 60.0445 59.4982 58.9633 58.6234 58.6398 59.0559 59.6257 60.4071 60.9793 61.0453 60.9546 61.6658 39.0496 67.9059 
E04 4.56702 3.11309 19.4680 3.99190 6.04150 9.82820 13.8409 16.6610 19.7738 24.2235 29.4041 30.5763 26.9328 20.3790 13.7846 8.64440 5.40720 3.63070 2.65260 2.12090 1.78200 1.56030 1.43610 1.36140 1.32000 1.30330 1.30080 1.33040 1.36960 1.45680 1.53010 1.61340 1.70840 1.70050 1.72740 1.79720 1.97310 2.21170 2.53300 20.4912 23.6186 -60.6799 
E05 87.3182 90.8825 72.9646 12.0019 19.5044 38.7041 65.8405 83.1757 87.4954 88.4660 89.0487 89.4959 89.8197 89.9501 90.2984 90.4843 90.6289 90.9193 90.9119 91.0239 91.0635 90.8286 91.0764 90.9739 91.0047 90.9203 90.9845 90.9802 90.8461 90.9348 91.1056 91.1336 90.9872 90.9306 90.8966 90.9277 91.0479 90.9982 90.7689 96.3617 -0.573146 1.74214 
E06 0.964384 0.993802 0.892174 1.21620 1.22370 1.23370 1.12910 1.14850 1.12010 1.11630 1.09120 1.08240 1.04490 1.04560 1.02940 1.02410 1.00900 1.00030 1.00300 0.991600 0.989300 0.987200 0.983000 0.984500 0.983700 0.985700 0.980400 0.990100 0.976500 0.985400 0.988400 0.986400 0.996200 0.986200 0.988300 0.977000 0.984700 0.977500 0.975600 8.93970 0.229877 -1.23009 
E07 56.4525 50.3343 26.0137 8.00490 14.6529 25.0910 31.7000 32.0086 31.1326 30.7381 30.5521 30.7556 32.1264 33.4344 32.9500 32.3645 33.7061 34.9165 34.2485 34.6870 40.4935 51.9449 59.8442 62.3283 64.5469 67.0508 69.8657 71.3188 71.5422 71.6861 71.8409 71.8748 71.7410 71.6532 71.5604 71.4801 71.5681 71.4838 71.3169 76.2740 20.5553 22.9600 
E08 54.1760 45.0913 22.1616 8.24610 14.3617 23.4368 28.2797 28.0485 27.2099 26.8310 26.5278 26.4949 27.2530 27.5637 26.2779 25.2966 26.2189 26.2848 24.5578 24.7024 30.4269 43.2027 55.5506 62.2376 66.0454 68.3128 69.5635 70.1557 70.4829 70.8365 71.2026 71.4633 71.5593 71.6613 71.6901 71.8239 72.0288 72.1333 72.0867 72.9519 29.1745 24.3139 
E09 1.79273 3.04196 1.70397 0.692600 1.04310 1.24210 1.17850 1.30290 1.39050 1.41340 1.61330 1.87150 2.30370 2.95710 3.46460 3.83800 4.43620 5.03260 5.03960 4.59930 3.93910 3.22610 2.59530 2.04810 1.64430 1.29860 1.08310 0.990800 0.895400 0.898500 0.866600 0.849600 0.897200 0.859500 0.937600 0.959300 0.968300 1.05470 0.907900 20.2112 -23.6224 7.55690 
E10 17.4526 18.0445 14.6862 6.52360 10.2308 14.6017 16.8234 17.2920 17.4840 17.8416 18.0630 18.0049 17.8613 17.7425 17.6909 17.6897 17.7587 17.8338 17.8826 17.9178 17.9391 18.0123 18.2286 18.3707 18.4424 18.3653 18.2760 18.1484 17.9712 17.8558 17.7326 17.6025 17.4715 17.3110 17.2044 17.0924 17.0195 16.9266 16.7809 49.5500 0.292870 0.505127 
F01 0.858931 0.886534 0.737977 0.669100 0.930700 0.913300 0.905200 0.924100 0.909400 0.901600 0.897300 0.884600 0.885700 0.885300 0.892800 0.878800 0.888500 0.883300 0.879300 0.885300 0.880800 0.885300 0.887900 0.885100 0.890000 0.890700 0.893400 0.892700 0.891900 0.890900 0.900600 0.899100 0.912500 0.891400 0.894200 0.927600 0.936500 0.909500 0.930200 8.00803 0.166569 -0.125563 
F02 36.6223 32.0281 16.5585 7.06940 10.6120 14.5206 16.0194 16.3580 16.5227 16.9301 17.7864 19.1926 21.3421 24.3204 28.0067 31.0536 31.7334 29.1906 25.5930 24.0156 24.1345 23.3428 23.2357 28.7417 38.7676 46.5920 50.8461 53.1074 54.6791 56.3581 58.3590 60.6922 63.3652 66.4360 69.7458 73.0451 75.9429 78.1253 79.5819 63.3661 20.0054 19.7347 
F03 9.80789 8.67911 27.9938 7.78450 13.6317 22.8830 29.9327 33.0688 35.5358 37.8456 38.9062 37.5798 34.3037 29.4595 23.6933 18.4416 14.4334 11.3339 9.14470 7.82600 6.90910 6.18000 5.67570 5.42130 5.36940 5.38660 5.40540 5.42080 5.59050 6.09720 6.97750 8.22130 9.86290 12.0831 14.9988 18.7294 23.2567 28.3313 33.5004 35.3590 12.0279 -50.9531 
F04 13.0336 21.6560 5.17487 2.09730 2.34610 2.56150 2.62460 2.64500 2.79770 3.08270 3.48120 4.33310 5.88000 8.77560 14.0433 21.6960 28.7723 32.1444 32.2418 30.9584 28.8241 26.0069 22.9797 19.2572 14.9204 10.9722 8.55530 7.33490 6.76580 6.41530 6.09560 6.00750 6.25710 6.78190 7.53650 8.30610 8.86210 8.72560 8.39480 53.6601 -43.6519 40.6349 
F05 53.2969 55.2515 45.2917 10.0153 17.6558 33.2994 48.9996 53.9135 54.6136 55.1058 55.4457 55.3889 55.1878 54.9324 54.8430 54.7944 54.8904 55.0585 55.0496 55.1367 55.1763 55.1386 55.5187 55.6726 55.7574 55.6539 55.5082 55.3016 55.0343 54.8372 54.7035 54.5168 54.2147 53.9986 53.7502 53.4830 53.4074 53.1194 52.8725 79.1859 0.0600162 0.343152 
F06 5.99593 6.22660 5.17765 3.41710 4.51540 5.59520 5.99970 6.07500 6.16730 6.37660 6.39860 6.35430 6.27130 6.17100 6.14370 6.13730 6.16060 6.19900 6.21240 6.20610 6.19800 6.24900 6.30680 6.35030 6.38260 6.31690 6.24790 6.13830 6.02410 5.94210 5.87080 5.77850 5.71870 5.61230 5.54320 5.47670 5.39640 5.38520 5.32240 29.9771 -0.0853453 -0.212025 
F07 34.1726 31.5376 13.7421 4.79320 7.22420 10.0678 11.5380 12.1418 12.9709 14.0617 15.3687 16.7040 18.2233 19.9119 21.5518 23.0849 24.4972 25.6124 26.6045 27.7817 28.6068 28.5392 28.2938 30.7359 37.5968 42.9353 45.1525 46.1376 46.7650 47.3989 48.0115 48.5937 49.1208 49.7498 50.4795 51.2688 52.0819 52.6362 53.1181 62.9588 13.5000 26.0882 
F08 36.0645 33.0144 18.1483 6.86700 11.2096 16.8996 19.7319 20.1386 20.3003 20.4890 21.0035 21.7429 22.7321 23.9118 25.2210 26.2714 26.8843 27.1069 27.0920 27.2411 27.8178 29.2299 32.2049 36.2439 40.1737 42.4713 43.3838 44.5502 46.9216 50.2367 53.3666 55.5946 55.9904 54.6511 53.2391 53.4888 55.4093 57.8938 60.5315 64.1725 14.6819 17.4911 
F09 17.6418 28.2124 19.0645 5.47710 8.19450 11.1903 12.8834 13.8207 14.8329 16.2495 18.3591 21.7296 26.8414 33.0814 39.4038 43.3326 44.3021 43.4252 41.3282 38.3215 34.3851 29.8820 25.5507 21.1987 16.9140 13.2017 10.9235 9.79680 9.28170 8.94310 8.65690 8.74390 9.37640 10.2661 11.2029 11.9110 12.1048 11.6019 11.2176 60.0802 -44.0778 8.43697 
F10 0.956233 0.986215 0.874648 1.14690 1.10710 1.15090 1.12320 1.11470 1.10780 1.09010 1.05720 1.04950 1.04580 1.03170 1.02020 1.00520 1.00000 0.995400 0.990300 0.984300 0.975700 0.979900 0.991100 0.973600 0.978300 0.974900 0.979600 0.978800 0.973600 0.979400 0.986900 0.972500 0.991800 0.977400 0.978800 0.990200 0.982500 0.996000 1.02450 8.87608 0.199743 -1.04825 
G01 87.3628 90.9258 73.0470 11.6877 19.5585 38.7064 65.8438 83.2435 87.6152 88.5481 89.1969 89.6078 89.9174 90.0535 90.3595 90.4889 90.6826 90.9369 90.9773 91.0592 91.1018 90.9028 91.1184 91.0241 91.0342 90.9471 91.0101 90.9967 90.9028 90.9800 91.1208 91.1557 90.9959 90.9456 90.8990 90.8894 91.0161 90.9777 90.8428 96.3795 -0.567651 1.70066 
G02 13.8833 15.1206 23.4946 6.44330 11.2853 19.8338 26.2966 28.0451 28.7350 29.3417 29.6549 29.5637 29.1191 28.1281 26.6034 24.5315 22.1874 19.7910 17.5629 15.7389 14.3579 13.3337 12.5790 11.8343 11.2758 10.8813 10.6687 10.7001 10.9403 11.4325 12.2086 13.3459 14.6808 16.0390 17.3624 18.3400 19.0311 20.1269 22.0179 45.7989 -4.30806 -25.0390 
G03 26.4613 15.9686 6.91632 5.11540 7.30060 9.42860 9.85100 9.52220 9.21720 9.03480 8.77890 8.42090 8.02780 7.53070 7.02980 6.58260 6.12310 5.65270 5.42000 5.40520 5.48000 5.92700 7.01050 11.4671 22.4519 35.8589 46.3456 52.2314 54.6402 55.5520 55.9105 55.9871 55.8469 55.7157 55.6045 55.5000 55.4928 55.4115 55.1135 46.9333 53.6618 20.9694 
G04 18.5316 8.96253 1.28246 1.87810 1.87490 1.93810 1.89650 1.69970 1.69730 1.72390 1.62830 1.55430 1.47040 1.35010 1.25690 1.21090 1.15340 1.10950 1.10540 1.13610 1.25710 1.55310 1.95420 2.96550 6.07890 13.1325 26.4023 43.6150 56.4283 62.9136 65.9857 67.4964 68.1618 68.6258 69.2306 70.0735 70.9900 71.5660 71.9067 35.9121 64.7894 39.5870 
